!!!!SEGMENT: pl-wnifc--3111-n--004_sowinski-wojciech--grandes-etudes-de-concert-op-60-etude-de-style-lie.krn
!!!cenid: 18xx:3854
!!!COM: Sowiński, Wojciech
!!!COM-rismID: pe30008543
!!!CDT: ~1803-1880/03/05
!!!CNT:
!!!GTL: Grandes Études de concert op. 60
!!!OTL: Étude de style lié
!!!PDT: 1843
!!!AGN:
!!!SMS-siglum: PL-Wnifc
!!!SMS-shelfmark: 3111/n
!!!SMS-shelfwork: 004 G
!!!SMS-variant:
!!!SMS-altvar:
!!!NIFC-rismSourceID: 1001141972
!!!NIFC-islandoraID: nifc:212151
!!!URL-pdf-islandora: https://repozytorium.nifc.pl/islandora/object/nifc%3A212151/datastream/PDF/view
!!!URL-scan: https://polish.musicsources.pl/pl/lokalizacje/galeria/druki-muzyczne/16829 @EN{Scan on Polish Music Sources Website} @PL{Skany w portalu Dziedzictwo Muzyki Polskiej w otwartym dostępie}
!!!ONB-nifc:
!!!AIN: 2 piano
!!!key: E-
**kern	**fing	**dynam	**kern	**fing	**dynam
*part2	*part2	*part2	*part1	*part1	*part1
*staff2	*	*	*staff1	*	*
*I"Piano	*	*	*I"Piano	*	*
*I'pf	*	*	*I'pf	*	*
*ICklav	*	*	*ICklav	*	*
*Ipiano	*	*	*Ipiano	*	*
*clefF4	*	*	*clefG2	*	*
*k[b-e-a-]	*	*	*k[b-e-a-]	*	*
*E-:	*	*	*E-:	*	*
*M4/4	*	*	*M4/4	*	*
*met(c)	*	*	*met(c)	*	*
=1	=1	=1	=1	=1	=1
*	*	*	*^	*	*
!!LO:TX:t=P:problem: pedalizacja zapisana jako Péd	!	!	!	!	!	!
!	!	!	!LO:TX:b:i:t=tutto legato con dolcezza.	!	!	!
!	!	!	!LO:TX:a:B:t=Allegro moderato.	!LO:N:vis=2	!	!
2.EE-:/ 2.BB-: 2.G:	.	.	(2ee-/	16ee-\LL	.	p
.	.	.	.	16e-\	.	.
.	.	.	.	16g\	.	.
.	.	.	.	16b-\	.	.
.	.	.	.	16ee-\	.	.
.	.	.	.	16b-\	.	.
.	.	.	.	16g\	.	.
.	.	.	.	16e-\JJ	.	.
.	.	.	4dd/	16dd\LL	5	.
.	.	.	.	16e-\	.	.
.	.	.	.	16g\	.	.
.	.	.	.	16b-\JJ	.	.
4r	.	.	4ee-/	16ee-\LL	5	.
.	.	.	.	16b-\	.	.
.	.	.	.	16g\	.	.
.	.	.	.	16e-\JJ	.	.
*Xped	*	*	*	*	*	*
=2	=2	=2	=2	=2	=2	=2
*^	*	*	*	*	*	*
*ped	*	*	*	*	*	*	*
4..E-:/	4..AA-:\	.	.	4dd/	16dd\LL	.	.
.	.	.	.	.	16d\	.	.
.	.	.	.	.	16e-\	.	.
.	.	.	.	.	16a-\	.	.
.	.	.	.	4cc/	16cc\	.	.
.	.	.	.	.	16a-\	.	.
.	.	.	.	.	16e-\	.	.
16A-\	16ryy	.	.	.	16c\JJ	.	.
2A-\	4ryy	.	.	4ryy	16r	.	.
.	.	.	.	.	16c\LL	.	.
.	.	.	.	.	16e-\	.	.
.	.	.	.	.	16a-\JJ	.	.
.	4AA-\	.	.	4cc/	16cc\LL	.	.
.	.	.	.	.	16a-\	.	.
.	.	.	.	.	16e-\	.	.
.	.	.	.	.	16c\JJ	.	.
*Xped	*	*	*	*	*	*	*
=3	=3	=3	=3	=3	=3	=3	=3
*ped	*	*	*	*	*	*	*
8qqBBB-/	.	.	.	.	.	.	.
!LO:N:vis=2	!	!	!	!	!	!	!
4BB-/	[2BB-\	1-5	.	4b-/	16b-\LL	.	.
.	.	.	.	.	16d\	.	.
.	.	.	.	.	16f\	.	.
.	.	.	.	.	16a-\JJ	.	.
4D/	.	.	.	4cc/	16cc\LL	.	.
.	.	.	.	.	16a-\	.	.
.	.	.	.	.	16f\	.	.
.	.	.	.	.	16d\JJ	.	.
4F/	2BB-\]	.	.	4b-/	16b-\LL	.	.
.	.	.	.	.	16f\	.	.
.	.	.	.	.	16d\	.	.
.	.	.	.	.	16B-\JJ	.	.
4A-/	.	.	.	4a-/	16a-\LL	.	.
.	.	.	.	.	16f\	.	.
.	.	.	.	.	16d\	.	.
.	.	.	.	.	16B-\JJ	.	.
*Xped	*	*	*	*	*	*	*
*v	*v	*	*	*	*	*	*
=4	=4	=4	=4	=4	=4	=4
!	!	!	!	!LO:N:vis=2	!	!
(>2BB-\ 2F	.	.	2a-/	16a-\LL	.	.
.	.	.	.	16B-</	.	.
.	.	.	.	16d</	.	.
.	.	.	.	16f</	.	.
.	.	.	.	16a-\	.	.
.	.	.	.	16f\	.	.
.	.	.	.	16d\	.	.
.	.	.	.	16B-\JJ	.	.
!	!	!	!	!LO:N:vis=2	!	!
4EE-\) 4E-	.	.	2g/)	16g\LL	.	.
.	.	.	.	16G</	.	.
.	.	.	.	16B-</	.	.
.	.	.	.	16e-</	.	.
4r	.	.	.	16g\	.	.
.	.	.	.	16e-\	.	.
.	.	.	.	16B-</	.	.
.	.	.	.	16G</JJ	.	.
!!LO:LB:g=original	!	!	!	!	!
=5	=5	=5	=5	=5	=5	=5
!	!	!	!	!LO:N:vis=2	!	!
2BBB-\ 2BB-	.	.	2b-/	(>16b-\LL	.	.
.	.	.	.	16B-</	.	.
.	.	.	.	16d</	.	.
.	.	.	.	16f\	.	.
.	.	.	.	16b-\	.	.
.	.	.	.	16f\	.	.
.	.	.	.	16d\	.	.
.	.	.	.	16B-\JJ	.	.
4D\	.	.	4f/	16f\LL	.	.
.	.	.	.	16d\	.	.
.	.	.	.	16B-</	.	.
.	.	.	.	16A-</JJ	.	.
4BB-\	.	.	4f#X/	16f#\LL	.	.
.	.	.	.	16d\	.	.
.	.	.	.	16B-</	.	.
.	.	.	.	16A-</JJ	.	.
=6	=6	=6	=6	=6	=6	=6
*^	*	*	*	*	*	*
!	!	!	!	!	!LO:N:vis=2	!	!
2EE-\ [<2E-	2ryy	.	.	2g/	16g\LL	.	.
.	.	.	.	.	16G</	.	.
.	.	.	.	.	16B-</	.	.
.	.	.	.	.	16e-\	.	.
.	.	.	.	.	16g\	.	.
.	.	.	.	.	16e-\	.	.
.	.	.	.	.	16B-</	.	.
.	.	.	.	.	16G</JJ	.	.
2E-/]	4BB-\	.	.	4ryy	16r	.	.
.	.	.	.	.	16B-\LL	.	.
.	.	.	.	.	16e-\	.	.
.	.	.	.	.	16g\JJ	.	.
.	4GG\	.	.	4b-/	16b-\LL	5	.
.	.	.	.	.	16g\	4	.
.	.	.	.	.	16d\	1	.
.	.	.	.	.	16e-\JJ	2	.
*v	*v	*	*	*	*	*	*
=7	=7	=7	=7	=7	=7	=7
*^	*	*	*	*	*	*
*	*^	*	*	*	*	*	*
[2FF\ [2F	2ryy	2ryy	.	.	4an/	16a\LL	5	sf
.	.	.	.	.	.	16f\	.	.
.	.	.	.	.	.	16e-\	.	.
.	.	.	.	.	.	16c\JJ	.	.
.	.	.	.	.	4cc/	16cc\LL	.	.
.	.	.	.	.	.	16f\	.	.
.	.	.	.	.	.	16e-\	.	.
.	.	.	.	.	.	16c\JJ	.	.
2FF\]	2F/]	4C/	.	.	4ee-/	16ee-\LL	.	<
.	.	.	.	.	.	16cc\	.	.
.	.	.	.	.	.	16a\	.	.
.	.	.	.	.	.	16f\JJ	.	.
.	.	4AAn/	.	.	4ee-/	16ee-\LL	.	.
.	.	.	.	.	.	16cc\	.	.
.	.	.	.	.	.	16a\	.	.
.	.	.	.	.	.	16f\JJ	.	[[
*v	*v	*v	*	*	*	*	*	*
=8	=8	=8	=8	=8	=8	=8
!	!	!	!	!LO:N:vis=2	!	!
(<2FF\ 2F	.	.	2ee-/	16ee-\LL	.	sf >
.	.	.	.	16e-\	.	.
.	.	.	.	16f\	.	.
.	.	.	.	16an\	.	.
.	.	.	.	16ee-\	.	.
.	.	.	.	16a\	.	.
.	.	.	.	16f\	.	.
.	.	.	.	16e-\JJ	.	.
!	!	!	!	!LO:N:vis=2	!	!
4BB-\) 4F	.	.	2dd/	16dd\LL	.	]
.	.	.	.	16d\	.	.
.	.	.	.	16f\	.	.
.	.	.	.	16b-\	.	.
4r	.	.	.	16dd\	.	.
.	.	.	.	16b-\	.	.
.	.	.	.	16f\	.	.
.	.	.	.	16d\JJ)	.	.
!!LO:LB:g=original	!	!	!	!	!
=9	=9	=9	=9	=9	=9	=9
!	!	!	!	!LO:N:vis=2	!	!
*ped	*	*	*	*	*	*
2.EE-:\ 2.BB-: 2.G:	.	.	2ee-/	(>16ee-\LL	.	f
.	.	.	.	16e-\	.	.
.	.	.	.	16g\	.	.
.	.	.	.	16b-\	.	.
.	.	.	.	16ee-\	.	.
.	.	.	.	16b-\	.	.
.	.	.	.	16g\	.	.
.	.	.	.	16e-\JJ	.	.
.	.	.	4dd/	16dd\LL	.	.
.	.	.	.	16e-\	.	.
.	.	.	.	16g\	.	.
.	.	.	.	16b-\JJ	.	.
4GG:\ 4E-: 4B-:	.	.	8.ff/L	16ff\LL	.	.
.	.	.	.	16e-\	.	.
.	.	.	.	16g\	.	.
.	.	.	16ee-/Jk	16ee-\JJ	.	.
*Xped	*	*	*	*	*	*
=10	=10	=10	=10	=10	=10	=10
*^	*	*	*	*	*	*
*ped	*	*	*	*	*	*	*
4..AA-/ 4..E-	2.ryy	.	.	4dd/	16dd\LL	.	.
.	.	.	.	.	16d\	.	.
.	.	.	.	.	16e-\	.	.
.	.	.	.	.	16a-\JJ	.	.
.	.	.	.	8.cc/L	16cc\LL	.	.
.	.	.	.	.	16a-\	.	.
.	.	.	.	.	16e-\	.	.
16A-\	.	.	.	16cc/Jk	16c\JJ	.	.
2A-\	.	.	.	4cc/	16c\LL	.	.
.	.	.	.	.	16e-\	.	.
.	.	.	.	.	16a-\	.	.
.	.	.	.	.	16b-\JJ	.	.
.	4AA-/	.	.	4cc/	16cc\LL	.	.
.	.	.	.	.	16a-\	.	.
.	.	.	.	.	16e-\	.	.
.	.	.	.	.	16c\JJ	.	.
*Xped	*	*	*	*	*	*	*
=11	=11	=11	=11	=11	=11	=11	=11
*ped	*	*	*	*	*	*	*
2c:/	[>2AAn:\ [>2F:	.	.	4ff/	16ff\LL	.	.
.	.	.	.	.	16f\	.	.
.	.	.	.	.	16an\	.	.
.	.	.	.	.	16cc\JJ	.	.
.	.	.	.	4gg/	16gg\LL	.	.
.	.	.	.	.	16cc\	.	.
.	.	.	.	.	16a\	.	.
.	.	.	.	.	16f\JJ	.	.
4An/	2AA\] 2F]	1	.	4ff/	16ff\LL	.	.
.	.	.	.	.	16cc\	.	.
.	.	.	.	.	16a\	.	.
.	.	.	.	.	16f\JJ	.	.
4c/	.	1	.	4ee-/	16ee-\LL	.	.
.	.	.	.	.	16cc\	.	.
.	.	.	.	.	16a\	.	.
.	.	.	.	.	16f\JJ	.	.
*Xped	*	*	*	*	*	*	*
*v	*v	*	*	*	*	*	*
=12	=12	=12	=12	=12	=12	=12
*ped	*	*	*	*	*	*
!	!	!	!	!LO:N:vis=2	!	!
[>2BB-:\ [>2F: 2A-: (2c:	.	.	2ee-/	16ee-\LL	.	sf
.	.	.	.	16e-\	.	.
.	.	.	.	16f\	.	.
.	.	.	.	16an\	.	.
.	.	.	.	16ee-\	.	.
.	.	.	.	16a\	.	.
.	.	.	.	16f\	.	.
.	.	.	.	16e-\JJ	.	.
!	!	!	!	!LO:N:vis=2	!	!
2BB-\] 2F] 2B-)	.	.	2dd/	16dd\LL	.	.
.	.	.	.	16d\	.	.
.	.	.	.	16f\	.	.
*Xped	*	*	*	*	*	*
.	.	.	.	16b-\	.	.
.	.	.	.	16dd\	.	.
.	.	.	.	16b-\	.	.
.	.	.	.	16f\	.	.
.	.	.	.	16d\JJ)	.	.
!!LO:LB:g=original	!	!	!	!	!	!
=13	=13	=13	=13	=13	=13	=13
!	!	!	!	!LO:N:vis=2	!	!
2BBB-/ 2FF 2AA- 2BB-	.	.	(2dd/	16dd\LL	.	.
.	.	.	.	16d\	.	.
.	.	.	.	16f\	.	.
.	.	.	.	16a-X\	.	.
.	.	.	.	16dd\	.	.
.	.	.	.	16a-\	.	.
.	.	.	.	16f\	.	.
.	.	.	.	16d\JJ	.	.
4DD/ 4AA- 4BB- 4D	.	.	4cc/	16cc\LL	.	.
.	.	.	.	16a-\	.	.
.	.	.	.	16f\	.	.
.	.	.	.	16d\JJ	.	.
4FF/ 4AA- 4BB- 4D 4F	.	.	4b-/	16b-\LL	.	.
.	.	.	.	16a-\	.	.
.	.	.	.	16f\	.	.
.	.	.	.	16d\JJ	.	.
=14	=14	=14	=14	=14	=14	=14
*^	*	*	*	*	*	*
2GG\ 2G	4BB-\ 4E-	.	.	4b-^/	16b-\LL	.	.
.	.	.	.	.	16B-\	.	.
.	.	.	.	.	16e-\	.	.
.	.	.	.	.	16g\JJ	.	.
!	!	!	!	!	!	!	!LO:HP:b:t=cres
.	4ryy	.	.	4bn^/	16b\LL	.	<
.	.	.	.	.	16Bn\	.	.
.	.	.	.	.	16d\	.	.
.	.	.	.	.	16f\JJ	.	.
4AA-\ 4A-	2ryy	.	.	4cc^/	16cc\LL	.	.
.	.	.	.	.	16c\	.	.
.	.	.	.	.	16en\	.	.
.	.	.	.	.	16f\JJ	.	.
4AA-:\ 4F: 4c:	.	.	.	8.cc/L	16cc\LL	.	sf
.	.	.	.	.	16f\	.	.
.	.	.	.	.	16cc\	.	.
.	.	.	.	16ff/Jk	16ff\JJ	.	.
=15	=15	=15	=15	=15	=15	=15	=15
!	!	!	!	!	!LO:N:vis=2	!	!
2BB-:\ 2G: 2B-:	2ryy	.	.	2ee-/	16ee-\LL	.	fp
.	.	.	.	.	16e-X\	.	.
.	.	.	.	.	16g\	.	.
.	.	.	.	.	16b-\	.	.
.	.	.	.	.	16ee-\	.	.
.	.	.	.	.	16b-\	.	.
.	.	.	.	.	16g\	.	.
.	.	.	.	.	16e-\JJ	.	.
!	!	!	!	!	!	!	!LO:HP:b:t=dim
4B-/	2BB-\	.	.	4dd/	16dd\LL	.	>
.	.	.	.	.	16f\	.	.
.	.	.	.	.	16a-\	.	.
.	.	.	.	.	16dd\JJ	.	.
4A-X/	.	.	.	8.cc/L	16cc\LL	.	p
.	.	.	.	.	16f\	.	.
.	.	.	.	.	16a-\	.	.
.	.	.	.	16dd/Jk	16dd\JJ	.	.
*v	*v	*	*	*	*	*	*
*	*	*	*v	*v	*	*
=16	=16	=16	=16	=16	=16
*ped	*	*	*	*	*
(2E-\ 2G	.	.	16ee-\LL	.	.
.	.	.	16e-\	.	.
.	.	.	16g\	.	.
.	.	.	16b-\JJ	.	.
.	.	.	16ee-\LL	.	.
.	.	.	16g\	.	.
.	.	.	16b-\	.	.
.	.	.	16gg\JJ	.	.
4EE-/)	.	.	4ee-\)	.	.
4r	.	.	4r	.	.
*Xped	*	*	*	*	*
!!LO:LB:g=original	!	!	!	!	!
=17	=17	=17	=17	=17	=17
*^	*	*	*^	*	*
*ped	*	*	*	*	*	*	*
4CC/ 4C	2ryy	.	.	16r	4ryy	.	fp
.	.	.	.	(16e-/LL	.	.	.
.	.	.	.	16g/	.	.	.
.	.	.	.	16cc/JJ	.	.	.
4r	.	.	.	4ee-/	16ee-\LL	.	.
.	.	.	.	.	16e-\	.	.
.	.	.	.	.	16g\	.	.
.	.	.	.	.	16cc\JJ	.	.
4.G:/ 4.c:	2C:\	.	.	4.ee-/	16ee-\LL	.	.
.	.	.	.	.	16g\	.	.
.	.	.	.	.	16cc\	.	.
*Xped	*	*	*	*	*	*	*
.	.	.	.	.	16dd\JJ	.	.
.	.	.	.	.	16ee-\LL	4	.
.	.	.	.	.	16cc\	2	.
*Xtuplet	*	*	*	*	*	*	*
(<24c/LL	.	.	.	16ee-/LL	16ee-\	.	.
24B-/	.	.	.	.	.	.	.
.	.	.	.	16ff/JJ	16ff\JJ	.	.
24A-/JJ	.	.	.	.	.	.	.
*v	*v	*	*	*	*	*	*
=18	=18	=18	=18	=18	=18	=18
(2G\)	.	.	16gg\LL	4ryy	.	.
.	.	.	16g\JJ	.	.	.
.	.	.	16bn\LL	.	.	.
.	.	.	16dd\	.	.	.
.	.	.	16gg\	16ryy	.	.
.	.	.	16a-\JJ	16a-/LL	.	.
.	.	.	16b^<\LL	16b/J	.	.
.	.	.	16dd\	8dd/J	.	.
4GG/)	.	.	16gg\	.	.	.
.	.	.	16g\JJ	16g/LL	.	.
.	.	.	16b^<\LL	16b/J	.	.
.	.	.	16dd\	8dd/J	.	.
8r	.	.	16gg\	.	.	.
.	.	.	16f\JJ	16f/LL	.	.
32GG/LLL	.	f	16b^<\LL	16b/	.	.
32FF/	.	.	.	.	.	.
!	!	!	!	!LO:N:vis=8	!	!
32EE-/	.	.	16dd\JJ	16dd/JJ	.	.
32DD/JJJ	.	.	.	.	.	.
=19	=19	=19	=19	=19	=19	=19
*ped	*	*	*	*	*	*
4CC/	.	.	16r	4ryy	.	sf
*	*	*	*	*	*below	*
.	.	.	16e-/LL	.	1	.
.	.	.	16g/	.	.	.
.	.	.	16cc/JJ	.	.	.
4r	.	.	4ee-/	16ee-\LL	.	.
.	.	.	.	16e-\	.	.
.	.	.	.	16g\	.	.
.	.	.	.	16cc\JJ	.	.
4.C\ 4.G 4.c	.	.	4.ee-/	16ee-\LL	.	.
.	.	.	.	16g\	.	.
.	.	.	.	16cc\	.	.
.	.	.	.	16dd\JJ	.	.
*	*	*	*	*	*above	*
.	.	.	.	16ee-\LL	4	.
.	.	.	.	16cc\	2	.
*Xped	*	*	*	*	*	*
(24C/LL	.	.	16ee-/LL	16ee-\	3	.
24BB-/	.	.	.	.	4	.
.	.	.	16ff/JJ	16ff\JJ	.	.
24AAn/JJ	.	.	.	.	.	.
=20	=20	=20	=20	=20	=20	=20
2BB-/)	.	.	4ff/	16ff\LL	5	.
.	.	.	.	16f\	.	.
.	.	.	.	16b-\	.	.
.	.	.	.	16dd\JJ	.	.
.	.	.	4gg/	16gg\LL	.	.
.	.	.	.	16b-\	.	.
.	.	.	.	16dd\	.	.
.	.	.	.	16gg\JJ	.	.
2B-\	.	.	4ff/	16ff\LL	.	>
.	.	.	.	16b-\	.	.
.	.	.	.	16dd\	.	.
.	.	.	.	16ff\JJ	.	.
.	.	.	4dd/	16dd\LL	.	.
.	.	.	.	16f\	.	.
.	.	.	.	16b-\	.	.
.	.	.	.	16dd\JJ)	.	]]
=21	=21	=21	=21	=21	=21	=21
*^	*	*	*	*	*	*
2BBB-/ [<2BB-	2ryy	1-5	.	16r	2ryy	.	p
.	.	.	.	(>16d-X/LL	.	.	.
.	.	.	.	16f/	.	.	.
.	.	.	.	16b-X/JJ	.	.	.
.	.	.	.	16dd/LL	.	.	.
.	.	.	.	16f/	.	.	.
.	.	.	.	16b-/	.	.	.
.	.	.	.	16dd/JJ	.	.	.
4.B-/	2BB-\]	.	.	4ff/	16ff\LL	.	<
.	.	.	.	.	16an\	.	.
.	.	.	.	.	16b-\	.	.
.	.	.	.	.	16dd\JJ	.	.
.	.	.	.	8ryy	16ff\LL	5	.
.	.	.	.	.	16dd\	2	.
*tuplet	*	*	*	*	*	*	*
24E-/LL	.	.	.	16b-/LL	16b-\	.	.
24D/	.	.	.	.	.	.	.
.	.	.	.	16gg/JJ	16gg\JJ	.	.
24E-/JJ	.	.	.	.	.	.	.
!!LO:LB:g=original	!	!	!	!	!	!	!
=22	=22	=22	=22	=22	=22	=22	=22
!	!	!	!	!	!LO:N:vis=2	!	!
[<2AA-\	2ryy	5	.	2aa-/	16aa-\LL	.	[ sf
.	.	.	.	.	16a-\	.	.
.	.	.	.	.	16cc\	.	.
.	.	.	.	.	16ee-\	.	.
.	.	.	.	.	16aa-\	.	.
.	.	.	.	.	16ee-\	.	.
.	.	.	.	.	16cc\	.	.
.	.	.	.	.	16a-\JJ	.	.
4.A-/	2AA-\]	.	.	4.ee-/	16ee-\LL	.	.
.	.	.	.	.	16e-\	.	.
.	.	.	.	.	16a-\	.	.
.	.	.	.	.	16cc\	.	.
.	.	.	.	.	16ee-\	.	.
.	.	.	.	.	16cc\	.	.
24D-X/LL	.	.	.	16a-/LL	16a-\	1	>
24C/	.	.	.	.	.	.	.
.	.	.	.	16ff/JJ	16ff\JJ	4	.
24D-/JJ	.	.	.	.	.	.	]]
=23	=23	=23	=23	=23	=23	=23	=23
!	!	!	!	!	!LO:N:vis=2	!	!
*ped	*	*	*	*	*	*	*
[<2GG-X/	2ryy	.	.	2gg-X/	16gg-\LL	.	f
.	.	.	.	.	16g-X\	.	.
.	.	.	.	.	16b-\	.	.
.	.	.	.	.	16dd-X\	.	.
.	.	.	.	.	16gg-\	.	.
.	.	.	.	.	16dd-\	.	.
.	.	.	.	.	16b-\	.	.
.	.	.	.	.	16g-\JJ	.	.
4G-X/	2GG-\]	.	.	4.ddny/	16dd\LL	.	.
.	.	.	.	.	16d\	.	.
.	.	.	.	.	16g-\	.	.
.	.	.	.	.	16b-\	.	.
8ryy	.	.	.	.	16dd\	.	.
.	.	.	.	.	16b-\	.	.
24GG-/LL	.	.	.	16g-/LL	16g-\	.	.
24FF/	.	.	.	.	.	.	.
.	.	.	.	16ee-/JJ	16ee-\JJ	.	.
24GG-/JJ	.	.	.	.	.	.	.
*Xped	*	*	*	*	*	*	*
*v	*v	*	*	*	*	*	*
=24	=24	=24	=24	=24	=24	=24
!	!	!	!	!LO:N:vis=2	!	!
*ped	*	*	*	*	*	*
2DD-X/ 2D-X	.	.	2ff/	16ff\LL	.	.
.	.	.	.	16f\	.	.
.	.	.	.	16a-\	.	.
.	.	.	.	16dd-X\	.	.
.	.	.	.	16ff\	.	.
.	.	.	.	16dd-\	.	.
.	.	.	.	16a-\	.	.
.	.	.	.	16f\JJ	.	.
*Xped	*	*	*	*	*	*
2C-X^\ 2c-X	.	.	16r	2ryy	.	.
.	.	.	16f\LL	.	.	.
.	.	.	16an\	.	.	.
.	.	.	16ee-\JJ	.	.	.
.	.	.	16ff\LL	.	.	.
.	.	.	16ee-\	.	.	.
.	.	.	16a\	.	.	.
.	.	.	16f\JJ)	.	.	.
!!LO:PB:g=original	!	!	!	!	!	!
=25	=25	=25	=25	=25	=25	=25
2BB-\ 2B-	.	.	16r	4ryy	.	p
.	.	.	16f\LL	.	.	.
.	.	.	16b-\	.	.	.
.	.	.	16ddn\JJ	.	.	.
.	.	.	16ff\LL	8.ff/L	.	.
.	.	.	16dd\	.	.	.
.	.	.	16b-\	.	.	.
.	.	.	16gg\JJ	16gg/Jk	.	.
2C-X\ 2c-X	.	.	16r	2ryy	.	.
.	.	.	16f\LL	.	.	>
.	.	.	16an\	.	.	.
.	.	.	16ee-\JJ	.	.	.
.	.	.	16ff\LL	.	.	.
.	.	.	16ee-\	.	.	.
.	.	.	16a\	.	.	.
.	.	.	16f\JJ	.	.	]]
=26	=26	=26	=26	=26	=26	=26
2BB-\ 2B-	.	.	16r	4ryy	.	.
.	.	.	(16f\LL	.	.	<
.	.	.	16b-\	.	.	.
.	.	.	16dd\JJ	.	.	.
.	.	.	16ff\LL	8.ff/L	.	.
.	.	.	16dd\	.	.	.
.	.	.	16b-\	.	.	.
.	.	.	16bb-\JJ)	16bb-/Jk	.	.
2C-X\ 2c-X	.	.	16r	2ryy	.	[
.	.	.	(16f\LL	.	.	>
.	.	.	16an\	.	.	.
.	.	.	16ee-\JJ	.	.	.
.	.	.	16ff\LL	.	.	.
.	.	.	16ee-\	.	.	.
.	.	.	16a\	.	.	.
.	.	.	16f\JJ)	.	.	.
=27	=27	=27	=27	=27	=27	=27
*^	*	*	*	*	*	*
(2B-/	2BB-\	.	.	16r	4r	.	]
.	.	.	.	16f\LL	.	.	.
.	.	.	.	16b-\	.	.	.
.	.	.	.	16dd\JJ	.	.	.
.	.	.	.	16ff\LL	4ff/	.	.
.	.	.	.	16dd\	.	.	.
.	.	.	.	16b-\	.	.	.
.	.	.	.	16f\JJ	.	.	.
2A-^>/)	2ryy	.	.	16r	4ryy	.	.
.	.	.	.	16f\LL	.	.	.
.	.	.	.	16a-\	.	.	.
.	.	.	.	16cc-X\JJ	.	.	.
.	.	.	.	16ee-\LL	4ff/	.	.
.	.	.	.	16cc-\	.	.	.
.	.	.	.	16a-\	.	.	.
.	.	.	.	16f\JJ	.	.	.
=28	=28	=28	=28	=28	=28	=28	=28
2Gn/	2BB-\	.	.	16r	4ryy	.	.
.	.	.	.	16e-\LL	.	.	.
.	.	.	.	16g\	.	.	.
.	.	.	.	16b-\JJ	.	.	.
.	.	.	.	16ccn\LL	4ee-/	.	.
.	.	.	.	16b-\	.	.	.
.	.	.	.	16g\	.	.	.
.	.	.	.	16e-\JJ	.	.	.
2F#X/	2ryy	.	.	16r	4ryy	.	.
.	.	.	.	16e-\LL	.	.	.
.	.	.	.	16f#X\	.	.	.
.	.	.	.	16an\JJ	.	.	.
.	.	.	.	16cc\LL	4ee-/	.	.
.	.	.	.	16a\	.	.	.
.	.	.	.	16f#\	.	.	.
.	.	.	.	16e-\JJ	.	.	.
!!LO:LB:g=original	!	!	!	!	!	!	!
=29	=29	=29	=29	=29	=29	=29	=29
!LO:TX:b:i:t=sotto voce	!	!	!	!	!	!	!
*ped	*	*	*	*	*	*	*
[>2BB-\ 2F	2ryy	.	.	16r	4ryy	.	.
.	.	.	.	16d\LL	.	.	.
.	.	.	.	16fn\	.	.	.
.	.	.	.	16a-X\JJ	.	.	.
.	.	.	.	16b-\LL	4dd/	.	.
.	.	.	.	16a-\	.	.	.
.	.	.	.	16f\	.	.	.
.	.	.	.	16d\JJ	.	.	.
2A-X/	2BB-\]	.	.	16r	4ryy	.	.
.	.	.	.	16d\LL	.	.	.
.	.	.	.	16f\	.	.	.
.	.	.	.	16a-\JJ	.	.	.
.	.	.	.	16cc\LL	4dd-X/	.	.
.	.	.	.	16a-\	.	.	.
.	.	.	.	16f\	.	.	.
.	.	.	.	16d\JJ	.	.	.
*v	*v	*	*	*	*	*	*
=30	=30	=30	=30	=30	=30	=30
([>2BB-\ 2F	.	.	16r	4ryy	.	.
.	.	.	16d\LL	.	.	.
.	.	.	16f\	.	.	.
.	.	.	16a-\JJ	.	.	.
.	.	.	16b-\LL	4dd/	.	.
.	.	.	16a-\	.	.	.
.	.	.	16f\	.	.	.
.	.	.	16d\JJ	.	.	.
2BB-\]) 2A-	.	.	16r	4ryy	.	.
.	.	.	16d\LL	.	.	.
.	.	.	16f\	.	.	.
.	.	.	16a-\JJ	.	.	.
.	.	.	16cc-X\LL	4dd/	.	.
.	.	.	16a-\	.	.	.
.	.	.	16f\	.	.	.
.	.	.	16d\JJ	.	.	.
=31	=31	=31	=31	=31	=31	=31
[>2BB-\ [2B-	.	.	16r	4ryy	.	.
.	.	.	16d\LL	.	.	.
.	.	.	16f\	.	.	.
.	.	.	16a-\JJ	.	.	.
.	.	.	16b-\LL	4dd^>/	.	.
.	.	.	16a-\	.	.	.
.	.	.	16f\	.	.	<
.	.	.	16d\JJ	.	.	.
4BB-\] 4B-]	.	.	16dd\LL	4ff^>/	.	.
.	.	.	16b-\	.	.	.
.	.	.	16a-\	.	.	.
.	.	.	16f\JJ	.	.	.
4r	.	.	16ff\LL	4aa-^>/	.	.
.	.	.	16dd\	.	.	.
.	.	.	16b-\	.	.	.
.	.	.	16a-\JJ	.	.	[[
*	*	*	*v	*v	*	*
=32	=32	=32	=32	=32	=32
1r	.	.	16ccc-X^^\LL	.	f
.	.	.	16aa-\	.	>
.	.	.	16ff\	.	.
.	.	.	16aa-\JJ	.	.
.	.	.	16dd\LL	.	.
.	.	.	16ff\	.	.
.	.	.	16cc-X\	.	.
.	.	.	16dd\JJ	.	.
.	.	.	16a-\LL	.	.
.	.	.	16b-\	.	.
.	.	.	16f\	.	.
.	.	.	16a-\JJ	.	.
.	.	.	16d/LL	.	.
.	.	.	16f/	.	]
!	!	!	!LO:TX:b:i:t=rall	!	!
.	.	.	16B-/	.	.
.	.	.	16b-/JJ	.	.
*Xped	*	*	*	*	*
!!LO:LB:g=original	!	!	!	!	!
=33	=33	=33	=33	=33	=33
*	*	*	*^	*	*
*ped	*	*	*	*	*	*
!	!	!	!LO:TX:b:i:t=dolce legato	!	!	!
!	!	!	!LO:TX:a:B:t=tempo Io	!LO:N:vis=2	!	!
2.EE-\ 2.G	.	.	2ee-/	16ee-\LL	.	p
.	.	.	.	16e-\	.	.
.	.	.	.	16g\	.	.
.	.	.	.	16b-\	.	.
.	.	.	.	16ee-\	.	.
.	.	.	.	16b-\	.	.
.	.	.	.	16g\	.	.
.	.	.	.	16e-\JJ	.	.
.	.	.	4dd/	16dd\LL	.	.
.	.	.	.	16b-\	.	.
.	.	.	.	16g\	.	.
.	.	.	.	16e-\JJ	.	.
4GG/ 4G	.	.	4ee-/	16ee-\LL	.	.
.	.	.	.	16b-\	.	.
.	.	.	.	16g\	.	.
.	.	.	.	16e-\JJ	.	.
*Xped	*	*	*	*	*	*
=34	=34	=34	=34	=34	=34	=34
*^	*	*	*	*	*	*
*ped	*	*	*	*	*	*	*
4..A-^/	[>2AA-\	.	.	4dd/	16dd\LL	.	.
.	.	.	.	.	16d\	.	.
.	.	.	.	.	16e-\	.	.
.	.	.	.	.	16a-\JJ	.	.
.	.	.	.	8.cc/L	16cc\LL	.	.
.	.	.	.	.	16a-\	.	.
.	.	.	.	.	16e-\	.	.
16E-/	.	.	.	16cc/Jk	16c\JJ	.	.
4E-/	2AA-\]	.	.	4cc/	16c\LL	.	.
.	.	.	.	.	16e-\	.	.
.	.	.	.	.	16a-\	.	.
.	.	.	.	.	16b-\JJ	.	.
4E-/	.	.	.	4cc/	16cc\LL	.	.
.	.	.	.	.	16a-\	.	.
.	.	.	.	.	16e-\	.	.
.	.	.	.	.	16c\JJ	.	.
*Xped	*	*	*	*	*	*	*
=35	=35	=35	=35	=35	=35	=35	=35
*ped	*	*	*	*	*	*	*
1BB- 1B-	2ryy	1-5	.	4b-/	16b-\LL	.	.
.	.	.	.	.	16d\	.	.
.	.	.	.	.	16f\	.	.
.	.	.	.	.	16a-\JJ	.	.
.	.	.	.	4cc/	16cc\LL	.	.
.	.	.	.	.	16a-\	.	.
.	.	.	.	.	16f\	.	.
.	.	.	.	.	16d\JJ	.	.
.	4BBB-/ 4BB-	.	.	4b-/	16b-\LL	.	.
.	.	.	.	.	16f\	.	.
.	.	.	.	.	16d\	.	.
.	.	.	.	.	16B-\JJ	.	.
.	4BB-T/	.	.	4a-/	16a-\LL	.	.
.	.	.	.	.	16f\	.	.
.	.	.	.	.	16d\	.	.
.	.	.	.	.	16B-\JJ	.	.
.	16qqAA-/LL	.	.	.	.	.	.
.	16qqBB-/JJ	.	.	.	.	.	.
*Xped	*	*	*	*	*	*	*
*v	*v	*	*	*	*	*	*
=36	=36	=36	=36	=36	=36	=36
!	!	!	!	!LO:N:vis=2	!	!
2FF:/ 2AA-: 2BB-: 2D:	.	.	2a-/	16a-\LL	.	sf
.	.	.	.	16A-\	.	.
.	.	.	.	16B-\	.	.
.	.	.	.	16d\	.	.
.	.	.	.	16a-\	.	.
.	.	.	.	16d\	.	.
.	.	.	.	16B-\	.	.
.	.	.	.	16A-\JJ	.	.
!	!	!	!	!LO:N:vis=2	!	!
4EE-\ 4BB- 4E-	.	.	2g/	16g\LL	.	.
.	.	.	.	16G</	.	.
.	.	.	.	16B-</	.	.
.	.	.	.	16e-\	.	.
4r	.	.	.	16g\	.	.
.	.	.	.	16e-\	.	.
.	.	.	.	16B-</	.	.
.	.	.	.	16G</JJ	.	.
!!LO:LB:g=original	!	!	!	!	!	!
=37	=37	=37	=37	=37	=37	=37
*^	*	*	*	*	*	*
!	!	!	!	!	!LO:N:vis=2	!	!
2D/	[2BBB-\ 2AA-	.	.	2b-/	16b-\LL	.	mp
.	.	.	.	.	16B-\	.	.
.	.	.	.	.	16d\	.	.
.	.	.	.	.	16f\JJ	.	.
.	.	.	.	.	16b-\LL	.	.
.	.	.	.	.	16f\	.	.
.	.	.	.	.	16d\	.	.
.	.	.	.	.	16B-\JJ	.	.
4BB-/	2BBB-\]	.	.	4f^/	16f\LL	.	.
.	.	.	.	.	16d\	.	.
.	.	.	.	.	16B-\	.	.
.	.	.	.	.	16A-\JJ	.	.
4D/	.	.	.	4f#X^/	16f#\LL	.	.
.	.	.	.	.	16d\	.	.
.	.	.	.	.	16B-\	.	.
.	.	.	.	.	16A-\JJ	.	.
*v	*v	*	*	*	*	*	*
=38	=38	=38	=38	=38	=38	=38
!	!	!	!	!LO:N:vis=2	!	!
*ped	*	*	*	*	*	*
2EE-\ 2E-	.	.	2g/	16g\LL	.	.
.	.	.	.	16G</	.	.
.	.	.	.	16B-</	.	.
.	.	.	.	16e-\	.	.
.	.	.	.	16g\	.	.
.	.	.	.	16e-\	.	.
.	.	.	.	16B-\	.	.
.	.	.	.	16G\JJ	.	.
2GG\ 2BB- 2E- 2G	.	.	16r	2ryy	.	.
.	.	.	16B-\LL	.	.	.
.	.	.	16e-\	.	.	.
.	.	.	16g\JJ	.	.	.
.	.	.	16b-\LL	.	.	.
.	.	.	16g\	.	.	.
.	.	.	16e-\	.	.	.
.	.	.	16B-\JJ	.	.	.
*Xped	*	*	*	*	*	*
=39	=39	=39	=39	=39	=39	=39
*^	*	*	*	*	*	*
*ped	*	*	*	*	*	*	*
[>2FF\ [>2C [2E- 2An	2ryy	.	.	4an^/	16a\LL	.	.
.	.	.	.	.	16f\	.	.
.	.	.	.	.	16e-\	.	.
.	.	.	.	.	16c\JJ	.	.
!	!	!	!	!	!	!	!LO:HP:b:t=cres
.	.	.	.	4cc^/	16cc\LL	.	<
.	.	.	.	.	16a\	.	.
.	.	.	.	.	16f\	.	.
.	.	.	.	.	16e-\JJ	.	.
4A^/	2FF\] 2C] 2E-]	.	.	4ee-^/	16ee-\LL	.	.
.	.	.	.	.	16cc\	.	.
.	.	.	.	.	16a\	.	.
.	.	.	.	.	16f\JJ	.	.
4A^/	.	.	.	4ee-^/	16ee-\LL	.	.
.	.	.	.	.	16cc\	.	.
.	.	.	.	.	16a\	.	.
.	.	.	.	.	16f\JJ	.	.
*v	*v	*	*	*	*	*	*
=40	=40	=40	=40	=40	=40	=40
2BB-\ 2F 2An 2c	.	.	4ee-/	16ee-\LL	.	sf
.	.	.	.	16cc\	.	.
.	.	.	.	16an\	.	.
.	.	.	.	16f\JJ	.	.
.	.	.	(16ee-\LL	4ryy	.	.
.	.	.	16dd\	.	.	.
.	.	.	16.gg\	.	.	.
.	.	.	32ff\JJk	.	.	.
*Xped	*	*	*	*	*	*
2BB-:\ 2F: 2A-X: 2d:	.	.	16ee-\LL	2ryy	.	.
.	.	.	16dd\	.	.	.
.	.	.	16cc\	.	.	.
.	.	.	16b-\JJ	.	.	.
.	.	.	16a\LL	.	.	.
.	.	.	16b-\	.	.	.
.	.	.	8qdd/	.	.	.
.	.	.	16.cc\	.	.	.
.	.	.	32b-\JJk)	.	.	.
!!LO:LB:g=original	!	!	!	!	!	!
=41	=41	=41	=41	=41	=41	=41
!LO:TX:a:B:t=à tempo	!	!	!	!LO:N:vis=2	!	!
*ped	*	*	*	*	*	*
2EE-/ 2BB- 2G	.	.	(2ee-/	16ee-\LL	.	f
.	.	.	.	16e-\	.	.
.	.	.	.	16g\	.	.
.	.	.	.	16b-\	.	.
.	.	.	.	16ee-\	.	.
.	.	.	.	16b-\	.	.
.	.	.	.	16g\	.	.
.	.	.	.	16e-\JJ	.	.
4GG/ 4E-	.	.	8.dd/L	16dd\LL	.	.
.	.	.	.	16g\	.	.
.	.	.	.	16b-\	.	.
.	.	.	16ee-/Jk	16ee-\JJ	.	.
4BB-\ 4G	.	.	8.ff/L	16ff\LL	.	.
.	.	.	.	16g\	.	.
.	.	.	.	16b-\	.	.
.	.	.	16ee-/Jk	16ee-\JJ	.	.
*Xped	*	*	*	*	*	*
=42	=42	=42	=42	=42	=42	=42
*^	*	*	*	*	*	*
*ped	*	*	*	*	*	*	*
4F/	[>2AA-\	.	.	4dd/	16dd\LL	.	.
.	.	.	.	.	16f\	.	.
.	.	.	.	.	16a-\	.	.
.	.	.	.	.	16bn\JJ	.	.
8.E-/L	.	.	.	4cc/	16cc\LL	.	.
.	.	.	.	.	16a-\	.	.
.	.	.	.	.	16e-\	.	.
16A-/Jk	.	.	.	.	16c\JJ	.	.
4A-/	2AA-\]	.	.	16r	2ryy	.	.
.	.	.	.	16c\LL	.	.	.
.	.	.	.	16e-\	.	.	.
.	.	.	.	16a-\JJ	.	.	.
4A-/	.	.	.	16cc\LL	.	.	.
.	.	.	.	16a-\	.	.	.
.	.	.	.	16e-\	.	.	.
.	.	.	.	16c\JJ	.	.	.
=43	=43	=43	=43	=43	=43	=43	=43
*ped	*	*	*	*	*	*	*
2AAn\ 2F 2c	2ryy	.	.	16r	4ryy	.	ff
.	.	.	.	16f\LL	.	.	.
.	.	.	.	16an\	.	.	.
.	.	.	.	16cc\JJ	.	.	.
.	.	.	.	8.ff/L	16ff\LL	.	.
.	.	.	.	.	16a\	.	.
.	.	.	.	.	16cc\	.	.
.	.	.	.	16gg/Jk	16gg\JJ	.	.
4An/	2AA\ 2F	.	.	8.ff/L	16ff\LL	.	.
.	.	.	.	.	16f\	.	.
.	.	.	.	.	16cc\	.	.
.	.	.	.	16ff/Jk	16ff\JJ	.	.
4c/	.	.	.	8.ee-/L	16ee-\LL	.	.
.	.	.	.	.	16f\	.	.
.	.	.	.	.	16a\	.	.
.	.	.	.	16ee-/Jk	16ee-\JJ	.	.
*Xped	*	*	*	*	*	*	*
=44	=44	=44	=44	=44	=44	=44	=44
!	!	!	!	!	!LO:N:vis=2	!	!
(2F/ 2An	2BB-\ 2E-	.	.	2ee-/	16ee-\LL	.	sf
.	.	.	.	.	16e-\	.	.
.	.	.	.	.	16f\	.	.
.	.	.	.	.	16an\	.	.
.	.	.	.	.	16ee-\	.	.
.	.	.	.	.	16a\	.	.
.	.	.	.	.	16f\	.	.
.	.	.	.	.	16e-\JJ	.	.
!	!	!	!	!	!LO:N:vis=2	!	!
4F/) 4B-	4BB-\	.	.	2dd/	16dd\LL	.	.
.	.	.	.	.	16d\	.	.
.	.	.	.	.	16f\	.	.
.	.	.	.	.	16b-\	.	.
4r	4ryy	.	.	.	16dd\	.	.
.	.	.	.	.	16b-\	.	.
.	.	.	.	.	16f\	.	.
.	.	.	.	.	16d\JJ)	.	.
!!LO:LB:g=original	!	!	!	!	!	!	!
=45	=45	=45	=45	=45	=45	=45	=45
8qqBBB-/	.	.	.	.	.	.	.
!	!	!	!	!	!LO:N:vis=2	!	!
[2BB-\	2ryy	.	.	(2dd/	16dd\LL	.	p
.	.	.	.	.	16d\	.	.
.	.	.	.	.	16f\	.	.
.	.	.	.	.	16a-\	.	.
.	.	.	.	.	16dd\	.	.
.	.	.	.	.	16a-\	.	.
.	.	.	.	.	16f\	.	.
.	.	.	.	.	16d\JJ	.	.
4F/	2BB-\]	.	.	4cc/	16cc\LL	.	.
.	.	.	.	.	16a-\	.	.
.	.	.	.	.	16f\	.	.
.	.	.	.	.	16d\JJ	.	.
4A-/	.	.	.	4b-/	16b-\LL	.	.
.	.	.	.	.	16a-\	.	.
.	.	.	.	.	16f\	.	.
.	.	.	.	.	16d\JJ	.	.
=46	=46	=46	=46	=46	=46	=46	=46
*	*	*	*	*	*^	*	*
2G/	4E-\	.	.	4b-X^/	16b-\LL	2.ryy	.	.
.	.	.	.	.	16B-\	.	.	.
.	.	.	.	.	16e-\	.	.	.
.	.	.	.	.	16g\JJ	.	.	.
.	(>4D\	.	.	4bn^/	16b\LL	.	.	.
.	.	.	.	.	16f\	.	.	.
.	.	.	.	.	16d\	.	.	.
.	.	.	.	.	16B-\JJ	.	.	.
4C\	2ryy	.	.	4cc/	16cc\LL	.	.	.
.	.	.	.	.	16e-\	.	.	.
.	.	.	.	.	16g\	.	.	.
.	.	.	.	.	16c\JJ	.	.	.
4AAn:\) 4:F 4An:	.	.	.	4ff/	16b\LL	16bn/LL	.	.
.	.	.	.	.	16cc\	16cc/	.	.
.	.	.	.	.	16f\	16ryy	.	.
!	!	!	!	!	!	!LO:N:vis=8	!	!
.	.	.	.	.	16ff\JJ	16ff/JJ	.	.
*	*	*	*	*	*v	*v	*	*
=47	=47	=47	=47	=47	=47	=47	=47
!	!	!	!	!	!	!	!LO:DY:a
!	!	!	!LO:DY:a	!	!	!	!
2BB-\ 2G 2B-	2ryy	.	fp	4.ee-/	16ee-\LL	.	mf
.	.	.	.	.	16e-\	.	.
.	.	.	.	.	16g\	.	.
.	.	.	.	.	16b-\JJ	.	.
.	.	.	.	.	16ee-\LL	.	.
.	.	.	.	.	16b-\	.	.
.	.	.	.	16g/LL	16g\	.	.
.	.	.	.	16ee-/JJ	16ee-\JJ	.	.
4F/ 4A- 4B-	2BB-\	.	.	8dd/L	16dd\LL	.	.
.	.	.	.	.	16a-\	.	.
.	.	.	.	8b-/J	16b-\	.	.
.	.	.	.	.	16dd\JJ	.	.
!	!	!	!	!	!	!	!LO:HP:b:t=dim
4d/	.	.	.	8.gg/L	16gg\LL	.	>
.	.	.	.	.	16b-\	.	.
.	.	.	.	.	16a-\	.	.
.	.	.	.	16ff/Jk	16ff\JJ	.	.
*v	*v	*	*	*	*	*	*
=48	=48	=48	=48	=48	=48	=48
4E-\ 4G 4e-	.	.	4ee-/	16ee-\LL	.	p
.	.	.	.	16g\	.	.
.	.	.	.	16b-\	.	.
.	.	.	.	16ee-\JJ	.	.
4r	.	.	4gg/	16gg\LL	.	.
.	.	.	.	16ee-\	.	.
.	.	.	.	16b-\	.	.
.	.	.	.	16g\JJ	.	.
2r	.	.	4ee-/	16ee-\LL	.	.
.	.	.	.	16b-\	.	.
.	.	.	.	16g\	.	.
.	.	.	.	16e-\JJ	.	.
.	.	.	4b-/	16b-\LL	.	.
.	.	.	.	16g\	.	.
.	.	.	.	16e-\	.	.
.	.	.	.	16B-\JJ)	.	.
!!LO:PB:g=original	!	!	!	!	!	!
=49	=49	=49	=49	=49	=49	=49
2.EE-/ 2.E-	.	.	16r	4ryy	.	mf
.	.	.	(>16B-/LL	.	.	.
.	.	.	16e-/	.	.	.
.	.	.	16g-X/JJ	.	.	.
.	.	.	4b-/	16b-\LL	.	.
.	.	.	.	16g-\	.	.
.	.	.	.	16e-\	.	.
.	.	.	.	16B-\JJ	.	.
.	.	.	4an/	16a\LL	.	.
.	.	.	.	16g-\	.	.
.	.	.	.	16e-\	.	.
.	.	.	.	16B-\JJ	.	.
4BB-T</	.	.	4b-/	16b-\LL	.	.
.	.	.	.	16g-\	.	.
.	.	.	.	16e-\	.	.
.	.	.	.	16B-\JJ	.	.
16qqAAn/LL	.	.	.	.	.	.
16qqBB-/JJ	.	.	.	.	.	.
=50	=50	=50	=50	=50	=50	=50
*^	*	*	*	*	*	*
2AA-^/ 2E-	[2EE-\	.	.	2cc-X/	16r	.	sf
.	.	.	.	.	16c-X\LL	.	.
.	.	.	.	.	16e-\	.	.
.	.	.	.	.	16a-\JJ	.	.
.	.	.	.	.	16cc-\LL	.	.
.	.	.	.	.	16a-\	.	.
.	.	.	.	.	16e-\	.	.
.	.	.	.	.	16c-\JJ	.	.
4C-X/	2EE-\]	.	.	4cc-/	16cc-\LL	.	.
.	.	.	.	.	16a-\	.	.
.	.	.	.	.	16e-\	.	.
.	.	.	.	.	16c-\JJ	.	.
4E-/	.	.	.	4cc-/	16cc-\LL	.	.
.	.	.	.	.	16a-\	.	.
.	.	.	.	.	16e-\	.	.
.	.	.	.	.	16c-\JJ	.	.
=51	=51	=51	=51	=51	=51	=51	=51
*ped	*	*	*	*	*	*	*
2.D-X/	2DD\	.	.	4cc-X/	16cc-\LL	.	.
.	.	.	.	.	16a-\	.	.
.	.	.	.	.	16f\	.	.
.	.	.	.	.	16d-X\JJ	.	.
.	.	.	.	4ee-^/	16ee-\LL	.	.
.	.	.	.	.	16a-\	.	.
.	.	.	.	.	16f\	.	.
.	.	.	.	.	16d-\JJ	.	.
.	2DD\	.	.	4dd^/	16dd\LL	.	.
.	.	.	.	.	16a-\	.	.
.	.	.	.	.	16f\	.	.
.	.	.	.	.	16d-\JJ	.	.
8E-/L	.	.	.	4cc-/	16cc-\LL	.	.
.	.	.	.	.	16a-\	.	.
8F/J	.	.	.	.	16f\	.	.
.	.	.	.	.	16d-\JJ	.	.
*Xped	*	*	*	*	*	*	*
=52	=52	=52	=52	=52	=52	=52	=52
!	!	!	!	!	!LO:N:vis=2	!	!
2D-X^/ 2F	2GG-X\	.	.	2cc-X/	16cc-\LL	.	sf
.	.	.	.	.	16c-X\	.	.
.	.	.	.	.	16d-X\	.	.
.	.	.	.	.	16a-\	.	.
.	.	.	.	.	16cc-\	.	.
.	.	.	.	.	16a-\	.	.
.	.	.	.	.	16d-\	.	.
.	.	.	.	.	16c-\JJ	.	.
!	!	!	!	!	!LO:N:vis=2	!	!
*ped	*	*	*	*	*	*	*
4D-/ 4G	4GG-\	.	.	2b-/	16b-\LL	.	.
.	.	.	.	.	16B-\	.	.
.	.	.	.	.	16d-\	.	.
.	.	.	.	.	16g-X\	.	.
4GG-T</	4ryy	.	.	.	16b-\	.	.
.	.	.	.	.	16g-\	.	.
.	.	.	.	.	16d-\	.	.
.	.	.	.	.	16B-\JJ)	.	.
16qqFF/LL	.	.	.	.	.	.	.
16qqGG-/JJ	.	.	.	.	.	.	.
!!LO:LB:g=original	!	!	!	!	!	!	!
=53	=53	=53	=53	=53	=53	=53	=53
2GG/	2ryy	.	.	16r	4ryy	.	.
.	.	.	.	16B-/LL	.	.	.
.	.	.	.	16d-X/	.	.	.
.	.	.	.	16g-X/JJ	.	.	.
.	.	.	.	4b-/	16b-\LL	.	.
.	.	.	.	.	16g-\	.	.
.	.	.	.	.	16d-\	.	.
.	.	.	.	.	16B-\JJ	.	.
*Xped	*	*	*	*	*	*	*
4G/	2G\	.	.	4b-/	16b-\LL	.	.
.	.	.	.	.	16g-\	.	.
.	.	.	.	.	16d-\	.	.
.	.	.	.	.	16B-\JJ	.	.
4GG/	.	.	.	4cc/	16cc\LL	.	.
.	.	.	.	.	16b-\	.	.
.	.	.	.	.	16en\	.	.
.	.	.	.	.	16d-\JJ	.	.
=54	=54	=54	=54	=54	=54	=54	=54
*	*^	*	*	*	*	*	*
2FF/ [2F	2FF\	2ryy	.	.	16r	4ryy	.	.
.	.	.	.	.	16d-X/LL	.	.	<
.	.	.	.	.	16f/	.	.	.
.	.	.	.	.	16b-/JJ	.	.	.
.	.	.	.	.	4dd/	16dd\LL	.	.
.	.	.	.	.	.	16b-\	.	.
.	.	.	.	.	.	16f\	.	.
.	.	.	.	.	.	16d-\JJ	.	.
2F/]	4C\	2FF\	.	.	4cc/	16cc\LL	.	[ >
.	.	.	.	.	.	16an\	.	.
.	.	.	.	.	.	16f\	.	.
.	.	.	.	.	.	16e-\JJ	.	.
.	4D/	.	.	.	4b-/	16b-\LL	.	.
.	.	.	.	.	.	16f\	.	.
.	.	.	.	.	.	16d-\	.	.
.	.	.	.	.	.	16B-\JJ	.	]]
*	*v	*v	*	*	*	*	*	*
=55	=55	=55	=55	=55	=55	=55	=55
!	!	!	!	!	!LO:N:vis=2	!	!
[2FF/ 2C 2An	2ryy	.	.	2ff/	16ff\LL	.	.
.	.	.	.	.	16f\	.	.
.	.	.	.	.	16an\	.	.
.	.	.	.	.	16cc\	.	.
.	.	.	.	.	16ff\	.	.
.	.	.	.	.	16cc\	.	.
.	.	.	.	.	16a\	.	.
.	.	.	.	.	16f\JJ	.	.
4..F/	2FF\]	.	.	4ryy	16cc\LL	.	.
!	!	!	!	!LO:TX:b:i:t=espres	!	!	!
.	.	.	.	.	16e-\	.	.
.	.	.	.	.	16f\	.	.
.	.	.	.	.	16a\JJ	.	.
.	.	.	.	8.cc/L	16cc\LL	.	.
.	.	.	.	.	16a\	.	.
.	.	.	.	.	16f\	.	.
16BB-/ 16D-X	.	.	.	16dd-X/Jk	16dd-\JJ	.	.
*v	*v	*	*	*	*	*	*
=56	=56	=56	=56	=56	=56	=56
(2BB-/ 2D-X	.	.	2dd-X/	16dd-\LL	.	pp
.	.	.	.	16d-X\	.	.
.	.	.	.	16f\	.	.
.	.	.	.	16b-\	.	.
.	.	.	.	16dd-\	.	.
.	.	.	.	16b-\	.	.
.	.	.	.	16f\	.	.
.	.	.	.	16d-\JJ	.	.
4BBB-/)	.	.	16r	2ryy	.	.
.	.	.	16d-/LL	.	.	.
.	.	.	16f/	.	.	.
.	.	.	16b-/JJ	.	.	.
4r	.	.	16dd-\LL	.	.	.
.	.	.	16b-\	.	.	.
.	.	.	16f\	.	.	.
.	.	.	16d-\JJ	.	.	.
!!LO:LB:g=original	!	!	!	!	!	!
=57	=57	=57	=57	=57	=57	=57
*ped	*	*	*	*	*	*
!LO:TX:a:i:t=consordino	!	!	!	!	!	!
2GG-X/	.	.	16r	4ryy	.	p
.	.	.	(16B-/LL	.	.	.
.	.	.	16d-X/	.	.	.
.	.	.	16g-X/JJ	.	.	.
.	.	.	2b-/	16b-\LL	.	.
.	.	.	.	16g-\	.	.
.	.	.	.	16d-\	.	.
.	.	.	.	16B-\JJ	.	.
2G-X\	.	.	.	16r	.	.
.	.	.	.	16B-\LL	.	.
.	.	.	.	16d-\	.	.
.	.	.	.	16g-\JJ	.	.
.	.	.	8.b-/L	16b-\LL	.	.
.	.	.	.	16g-\	.	.
.	.	.	.	16d-\	.	.
.	.	.	16cc-X/Jk	16cc-\JJ	.	.
=58	=58	=58	=58	=58	=58	=58
2D\	.	.	2a-^/	16r	.	.
.	.	.	.	16A-</LL	.	.
.	.	.	.	16d-X\	.	.
.	.	.	.	16g-X\JJ	.	.
.	.	.	.	16a-\LL	.	.
.	.	.	.	16d-\	.	.
.	.	.	.	16g-\	.	.
.	.	.	.	16A-</JJ	.	.
4DD/	.	.	4a-/	16a-\LL	.	.
.	.	.	.	16d-\	.	.
.	.	.	.	16f\	.	.
.	.	.	.	16A-</JJ	.	.
4EE-/	.	.	4b-/	16b-\LL	.	.
.	.	.	.	16e-\	.	.
.	.	.	.	16gn\	.	.
.	.	.	.	16d-\JJ	.	.
=59	=59	=59	=59	=59	=59	=59
[>2AA-/	.	.	16r	2ryy	.	.
.	.	.	16c-X/LL	.	.	.
.	.	.	16e-/	.	.	.
.	.	.	16a-/JJ	.	.	.
.	.	.	16cc\LL	.	.	.
.	.	.	16a-\	.	.	.
.	.	.	16e-\	.	.	.
.	.	.	16c-\JJ	.	.	.
2AAA-/ 2AA-]	.	.	4cc/	16cc\LL	.	.
.	.	.	.	16c-\	.	.
.	.	.	.	16e-\	.	.
.	.	.	.	16a-\JJ	.	.
.	.	.	8.cc/L	16cc\LL	.	.
.	.	.	.	16a-\	.	.
.	.	.	.	16e-\	.	.
.	.	.	16dd-X/Jk	16dd-\JJ	.	.
=60	=60	=60	=60	=60	=60	=60
!	!	!	!	!LO:N:vis=2	!	!
2EE-/	.	.	2b-/	16b-\LL	.	.
.	.	.	.	16B-\	.	.
.	.	.	.	16e-\	.	.
.	.	.	.	16a-\	.	.
.	.	.	.	16b-\	.	.
.	.	.	.	16e-\	.	.
.	.	.	.	16a-\	.	.
.	.	.	.	16B-\JJ	.	.
4E-\	.	.	4b-/	16b-\LL	.	.
.	.	.	.	16e-\	.	.
.	.	.	.	16gn\	.	.
.	.	.	.	16B-\JJ	.	.
4GG-X/	.	.	4dd/	16dd\LL	.	.
.	.	.	.	16g-X\	.	.
.	.	.	.	16b-\	.	.
.	.	.	.	16en\JJ)	.	.
!!LO:LB:g=original	!	!	!	!	!	!
=61	=61	=61	=61	=61	=61	=61
*ped	*	*	*	*	*	*
2C-X\ 2c-X	.	.	16r	4ryy	.	.
.	.	.	(16e-X\LL	.	.	.
.	.	.	16g-X\	.	.	.
.	.	.	16cc-X\JJ	.	.	.
.	.	.	4ee-/	16ee-\LL	.	.
.	.	.	.	16cc-\	.	.
.	.	.	.	16g-\	.	.
.	.	.	.	16e-\JJ	.	.
4C-/	.	.	4ee-/	16ee-\LL	.	.
.	.	.	.	16cc-\	.	.
.	.	.	.	16g-\	.	.
.	.	.	.	16e-\JJ	.	.
4CC/	.	.	4ee-/	16ee-\LL	.	.
.	.	.	.	16cc-\	.	.
.	.	.	.	16g-\	.	.
.	.	.	.	16e-\JJ)	.	.
*Xped	*	*	*	*	*	*
*	*	*	*v	*v	*	*
=62	=62	=62	=62	=62	=62
*ped	*	*	*	*	*
2BB-\ 2E- 2G-X 2B-	.	.	16r	.	f
.	.	.	(16e-\LL	.	.
.	.	.	16g-X\	.	.
.	.	.	16b-\JJ	.	.
.	.	.	16ee-\LL	.	.
.	.	.	16g-\	.	<
.	.	.	16b-\	.	.
.	.	.	16ee-\JJ	.	.
4BB-/	.	.	16gg\LL	.	.
.	.	.	16b-\	.	.
.	.	.	16ee-\	.	.
.	.	.	16gg\JJ	.	.
8BBB-/	.	.	8bb-\)	.	.
8ryy	.	.	8r	.	[
*Xped	*	*	*	*	*
=63	=63	=63	=63	=63	=63
2AAn\ 2E- 2G-X 2An	.	.	16r	.	.
.	.	.	(16e-\LL	.	sf
.	.	.	16g-X\	.	<
.	.	.	16ccn\JJ	.	.
.	.	.	16ee-\LL	.	.
.	.	.	16g-\	.	.
.	.	.	16cc\	.	.
.	.	.	16ee-\JJ	.	.
4AA/	.	.	16gg-X\LL	.	.
.	.	.	16cc\	.	.
.	.	.	16ee-\	.	.
.	.	.	16gg-\JJ	.	.
8AAA-/	.	.	8ccc\)	.	.
8ryy	.	.	8r	.	[
*Xped	*	*	*	*	*
=64	=64	=64	=64	=64	=64
*	*below	*	*	*	*
[>2BB-\ 2B-	5-1	.	16r	.	.
.	.	.	16dn/LL	.	.
.	.	.	16f/	.	.
.	.	.	16dd/JJ	.	.
.	.	.	(16b-/LL	.	.
*	*	*	*	*below	*
.	.	.	16d/	1	.
.	.	.	16B-/	2	.
.	.	.	16cn/JJ	1	.
4BBB-/ 4BB-]	.	.	24d\LL	.	.
.	.	.	24e-\	.	<
.	.	.	24f\	.	.
.	.	.	32gn\L	.	.
.	.	.	32a-X\	.	.
.	.	.	32b-\	.	.
.	.	.	32cc\	.	.
4ryy	.	.	32dd\	.	.
.	.	.	32ee-\	.	.
.	.	.	32ff\	.	.
.	.	.	32gg\	.	.
.	.	.	32aa-\	.	.
.	.	.	32bb-\	.	.
.	.	.	32ccc\	.	.
.	.	.	32ddd\JJJ)	.	[[
!!LO:LB:g=original	!	!	!	!	!
=65	=65	=65	=65	=65	=65
*ped	*	*	*	*	*
!LO:TX:b:i:t=splendete	!	!	!	!	!
16EE-\ 16E-	.	.	(2ee-\ 2eee-	.	ff
16G/LL	.	.	.	.	.
16e->\	.	.	.	.	.
16B-/	.	.	.	.	.
16g>\	.	.	.	.	.
16e->\	.	.	.	.	.
16b->\	.	.	.	.	.
16e->\JJ	.	.	.	.	.
16g>\LL	.	.	4dd/ 4ddd	.	.
16e->\	.	.	.	.	.
16B-/	.	.	.	.	.
16G/JJ	.	.	.	.	.
16e->\LL	.	.	4ee-/ 4eee-	.	.
16B->\	.	.	.	.	.
16G/	.	.	.	.	.
16E-/JJ	.	.	.	.	.
=66	=66	=66	=66	=66	=66
*ped	*	*	*	*	*
16AA-\ 16A-	.	.	4..dd^\) 4..ddd	.	.
16E-/LL	.	.	.	.	.
16c/	.	.	.	.	.
16A-/	.	.	.	.	.
16e-/	.	.	.	.	.
16c/	.	.	.	.	.
16a-/	.	.	.	.	.
16c/JJ	.	.	16cc/ 16ccc	.	.
16e-\LL	.	.	4cc/ 4ccc	.	.
16c\	.	.	.	.	.
16A-\	.	.	.	.	.
16E-\JJ	.	.	.	.	.
16c\LL	.	.	4cc/ 4ccc	.	.
16A-\	.	.	.	.	.
16E-\	.	.	.	.	.
16C\JJ	.	.	.	.	.
*Xped	*	*	*	*	*
=67	=67	=67	=67	=67	=67
*^	*	*	*	*	*
!	!LO:N:vis=4:xstem	!	!	!	!	!
16BB-/LL	4BBB-\	.	.	4..b-^\ 4..bb-	.	.
16F/	.	.	.	.	.	.
16d>\	.	.	.	.	.	.
16B-/	.	.	.	.	.	.
16f>\	4ryy	.	.	.	.	.
16d>\	.	.	.	.	.	.
16a->\	.	.	.	.	.	.
16d>\JJ	.	.	.	16cc/ 16ccc	.	.
16f>\LL	2ryy	.	.	4b-/ 4bb-	.	.
16d>\	.	.	.	.	.	.
16B-/	.	.	.	.	.	.
16A-/JJ	.	.	.	.	.	.
16d>\LL	.	.	.	4a-/ 4aa-	.	.
16B-/	.	.	.	.	.	.
16A-/	.	.	.	.	.	.
16F/JJ	.	.	.	.	.	.
=68	=68	=68	=68	=68	=68	=68
!	!LO:N:vis=4:xstem	!	!	!	!	!
16E-^>/LL	4EE-\	.	.	(>2a-/ (>2aa-	.	sf
*ped	*	*	*	*	*	*
16E-/	.	.	.	.	.	.
16B-/	.	.	.	.	.	.
16G/	.	.	.	.	.	.
16e->\	4ryy	.	.	.	.	.
16B-/	.	.	.	.	.	.
16g>\	.	.	.	.	.	.
16B-/JJ	.	.	.	.	.	.
16e->\LL	2ryy	.	.	4g/) 4gg)	.	.
16B-/	.	.	.	.	.	.
16G/	.	.	.	.	.	.
16E-/JJ	.	.	.	.	.	.
16e->\LL	.	.	.	8.g/L 8.gg	.	.
16B-/	.	.	.	.	.	.
16G/	.	.	.	.	.	.
16E-/JJ	.	.	.	16g/Jk 16gg	.	.
*Xped	*	*	*	*	*	*
*v	*v	*	*	*	*	*
!!LO:LB:g=original	!	!	!	!	!
=69	=69	=69	=69	=69	=69
16BBB-/LL 16BB-	.	.	(>2b-\ (>2bb-	.	.
*ped	*	*	*	*	*
16D/	.	.	.	.	.
16B-/	.	.	.	.	.
16F/	.	.	.	.	.
16d/	.	.	.	.	.
16B-/	.	.	.	.	.
16f>\	.	.	.	.	.
16B-/JJ	.	.	.	.	.
16d\LL	.	.	4f^\) 4ff)	.	.
16B-\	.	.	.	.	.
16F\	.	.	.	.	.
16D\JJ	.	.	.	.	.
16d\LL	.	.	4f#X^\ 4ff#X	.	.
16c\	.	.	.	.	.
16B-\	.	.	.	.	.
16D\JJ	.	.	.	.	.
*Xped	*	*	*	*	*
=70	=70	=70	=70	=70	=70
16EE-\LL 16E-	.	.	2g^\ 2gg	.	.
*ped	*	*	*	*	*
16E-/	.	.	.	.	.
16B-/	.	.	.	.	.
16G/	.	.	.	.	.
16e->\	.	.	.	.	.
16B-/	.	.	.	.	.
16g>\	.	.	.	.	.
16B-/JJ	.	.	.	.	.
16e-\LL	.	.	4g^\ 4gg	.	.
16B-\	.	.	.	.	.
16G\	.	.	.	.	.
16E-\JJ	.	.	.	.	.
16e-\LL	.	.	4b-^\ 4bb-	.	.
16B-\	.	.	.	.	.
16G\	.	.	.	.	.
16E-\JJ	.	.	.	.	.
*Xped	*	*	*	*	*
=71	=71	=71	=71	=71	=71
16FF/LL 16F	.	.	(2an^\ 2aan	.	sf
16F^>/	.	.	.	.	.
16c/	.	.	.	.	.
16An/	.	.	.	.	.
16e->\	.	.	.	.	.
16c>\	.	.	.	.	.
16g-X>\	.	.	.	.	.
16e->\JJ	.	.	.	.	.
!	!	!	!	!	!LO:HP:b:t=cres
16f\LL	.	.	(4cc\) 4ccc	.	<
16e-\	.	.	.	.	.
16c\	.	.	.	.	.
16F\JJ	.	.	.	.	.
16a-\LL	.	.	(4ee-\) 4eee-	.	.
16e-\	.	.	.	.	.
16c\	.	.	.	.	.
16F\JJ	.	.	.	.	.
=72	=72	=72	=72	=72	=72
16BBB-^>\ 16BB-	.	.	4ee-^\) 4eee-	.	sf
16BB-\LL	.	.	.	.	.
16A-X\	.	.	.	.	.
16F\JJ	.	.	.	.	.
2.BB-\ 2.F 2.A- 2.d	.	.	16ee-\LL 16eee-	.	.
.	.	.	16dd'^<\ 16ddd	.	sf
.	.	.	16gg'\ 16ggg	.	.
.	.	.	16ff'\JJ 16fff	.	.
!	!	!	!LO:TX:i:b:t=riten	!	!
.	.	.	16ee-'\LL 16eee-	.	>
.	.	.	16dd'\ 16ddd	.	.
.	.	.	16cc'\ 16ccc	.	.
.	.	.	16b-'\JJ 16bb-	.	]
.	.	.	16an\LL 16aan	.	>
.	.	.	16b-\ 16bb-	.	.
.	.	.	8qddd/	.	.
.	.	.	16cc\ 16ccc	.	.
.	.	.	16b-\JJ 16bb-	.	] p
!!LO:PB:g=original	!	!	!	!	!
=73	=73	=73	=73	=73	=73
*	*	*	*ped	*	*
16EE-\ 16E-	.	.	(2ee-\ 2eee-	.	pp
16G\LL	.	.	.	.	.
16e->\	.	.	.	.	.
16B-\	.	.	.	.	.
16g>\	.	.	.	.	.
16e->\	.	.	.	.	.
16b->\	.	.	.	.	.
16e->\JJ	.	.	.	.	.
16g>\LL	.	.	4dd/ 4ddd	.	.
16e->\	.	.	.	.	.
16B-\	.	.	.	.	.
16G\JJ	.	.	.	.	.
16e->\LL	.	.	4ee-/) 4eee-	.	.
16B-\	.	.	.	.	.
16G\	.	.	.	.	.
16E-\JJ	.	.	.	.	.
*	*	*	*Xped	*	*
=74	=74	=74	=74	=74	=74
*	*	*	*ped	*	*
16AA-\ 16A-	.	.	(4..dd^\ 4..ddd	.	.
16A-\LL	.	.	.	.	.
16e->\	.	.	.	.	.
16c>\	.	.	.	.	.
16a->\	.	.	.	.	.
16e->\	.	.	.	.	.
16cc>\	.	.	.	.	.
16e->\JJ	.	.	16cc/) 16ccc	.	.
16a->\LL	.	.	4cc/ 4ccc	.	.
16e->\	.	.	.	.	.
16c>\	.	.	.	.	.
16A-\JJ	.	.	.	.	.
16e->\LL	.	.	4cc/ 4ccc	.	.
16c>\	.	.	.	.	.
16A-\	.	.	.	.	.
16E-\JJ	.	.	.	.	.
*	*	*	*Xped	*	*
=75	=75	=75	=75	=75	=75
*	*	*	*ped	*	*
16AAn\ 16An	.	.	(4.ff/ 4.fff	.	.
16A\LL	.	.	.	.	.
16f>\	.	.	.	.	.
16e->\	.	.	.	.	.
16an>\	.	.	.	.	.
16f>\	.	.	.	.	.
16cc>\	.	.	8gg/ 8ggg	.	.
16f>\JJ	.	.	.	.	.
16a>\LL	.	.	4ff/ 4fff	.	.
16f>\	.	.	.	.	.
16e->\	.	.	.	.	.
16A\JJ	.	.	.	.	.
16cc>\LL	.	.	4ee-/) 4eee-	.	.
16f>\	.	.	.	.	.
16e->\	.	.	.	.	.
16A\JJ	.	.	.	.	.
*	*	*	*Xped	*	*
=76	=76	=76	=76	=76	=76
*	*	*	*ped	*	*
16BB-\ 16B-	.	.	(>2ee-/ (>2eee-	.	sf
16F\LL	.	.	.	.	.
16d\	.	.	.	.	.
16B-\	.	.	.	.	.
16f>\	.	.	.	.	.
16d>\	.	.	.	.	.
16b->\	.	.	.	.	.
16d>\JJ	.	.	.	.	.
16f>\LL	.	.	4dd/) 4ddd)	.	.
16d>\	.	.	.	.	.
16B-\	.	.	.	.	.
16F\JJ	.	.	.	.	.
16d>\LL	.	.	4rff	.	.
16B-\	.	.	.	.	.
16F\	.	.	.	.	.
16D\JJ	.	.	.	.	.
*	*	*	*Xped	*	*
!!LO:LB:g=original	!	!	!	!	!
=77	=77	=77	=77	=77	=77
16BB-\ 16B-	.	.	(2dd\ 2ddd	.	mf
(16F\LL	.	.	.	.	.
16B-\	.	.	.	.	.
16A-\	.	.	.	.	.
16d\	.	.	.	.	.
16B-\	.	.	.	.	.
16f\	.	.	.	.	.
16d\JJ	.	.	.	.	.
16a-\LL	.	.	(4cc\) 4ccc	.	.
16f\	.	.	.	.	.
16d\	.	.	.	.	.
16B-\JJ	.	.	.	.	.
16f\LL	.	.	4b-\) 4bb-	.	.
16d\	.	.	.	.	.
16B-\	.	.	.	.	.
16A-\JJ)	.	.	.	.	.
=78	=78	=78	=78	=78	=78
16GG\ 16G	.	.	4b-^>/ 4bb-	.	.
16G\LL	.	.	.	.	.
16e-\	.	.	.	.	.
16B-\JJ	.	.	.	.	.
!	!	!	!	!	!LO:HP:b:t=cres
16g>\LL	.	.	4bn^>/ 4bbn	.	<
16d\	.	.	.	.	.
16Bn\	.	.	.	.	.
16G\JJ	.	.	.	.	.
16a->\LL	.	.	4cc^>/ 4ccc	.	.
16e->\	.	.	.	.	.
16c\	.	.	.	.	.
16A-\JJ	.	.	.	.	.
16an>\LL	.	.	4ff^>/ 4fff	.	.
16f>\	.	.	.	.	.
16e->\	.	.	.	.	.
16An\JJ	.	.	.	.	.
=79	=79	=79	=79	=79	=79
*^	*	*	*	*	*
!LO:TX:a:i:t=con forza	!	!	!	!	!	!
16BBB-\ 16BB-	2ryy	.	.	(>16.ee-/LL 16.eee-	.	f
16G\LL	.	.	.	.	.	.
.	.	.	.	32g/K 32gg	.	.
16e->\	.	.	.	16a-/ 16aa-	.	.
16B-\JJ	.	.	.	16an/JJ 16aan	.	.
*	*	*	*	*Xtuplet	*	*
16g>\LL	.	.	.	20b-/LL 20bb-	.	.
.	.	.	.	20bn/ 20bbn	.	.
16e->\	.	.	.	.	.	.
.	.	.	.	20cc/ 20ccc	.	.
16d\	.	.	.	.	.	.
.	.	.	.	20cc#X/ 20ccc#X	.	.
16B-\JJ	.	.	.	.	.	.
.	.	.	.	20dd/JJ) 20ddd	.	.
16BB-\ 16B-	16ryy	.	.	16ee-'/LL 16eee-	.	.
16F/LL	8F\	.	.	16dd'/ 16ddd	.	.
16d/	.	.	.	16cc#'/ 16ccc#	.	.
16B-/JJ	16ryy	.	.	16dd'/JJ 16ddd	.	.
16a->\LL	4F\ 4B-	.	.	16ee-/LL 16eee-	.	.
!	!	!	!	!LO:TX:b:i:t=rall	!	!
16d>\	.	.	.	16dd/ 16ddd	.	.
16b->\	.	.	.	16.gg/ 16.ggg	.	.
16d>\JJ	.	.	.	.	.	.
.	.	.	.	32ff/JJk 32fff	.	.
*v	*v	*	*	*	*	*
=80	=80	=80	=80	=80	=80
16EE-\ 16E-	.	.	N(4ee-\ 4eee-	.	fp
!LO:TX:a:t=P:problem:mixed beam	!	!	!	!	!
16G\LL	.	.	.	.	.
16e->\	.	.	.	.	.
16B-\JJ	.	.	.	.	.
!	!	!LO:DY:a	!	!	!
16g>\LL	.	p	4rgg	.	.
16e->\	.	.	.	.	.
16b->\	.	.	.	.	.
16e->\JJ	.	.	.	.	.
16g>\LL	.	.	2rgg	.	.
16e->\	.	.	.	.	.
16B-\	.	.	.	.	.
16G\JJ	.	.	.	.	.
16e->\LL	.	.	.	.	.
16B-\	.	.	.	.	.
16G\	.	.	.	.	.
16E-\JJ)	.	.	.	.	.
!!LO:LB:g=original	!	!	!	!	!
=81	=81	=81	=81	=81	=81
!	!	!	!LO:TX:a:i:t=ten	!	!
*	*	*	*ped	*	*
16EE-\ 16E-	.	.	1d-X	.	.
16G\LL	.	.	.	.	.
16e->\	.	.	.	.	.
16B-\JJ	.	.	.	.	.
*	*above	*	*	*	*
16g>\LL	1	.	.	.	.
16e->\	2	.	.	.	.
16cc>\	1	.	.	.	.
16e->\JJ	2	.	.	.	.
16a->\LL	.	.	.	.	.
16e->\	.	.	.	.	.
16A-\	.	.	.	.	.
16E-\JJ	.	.	.	.	.
16e->\LL	.	.	.	.	.
16A-\	.	.	.	.	.
16E-\	.	.	.	.	.
16AA-\JJN)	.	.	.	.	.
*	*	*	*Xped	*	*
=82	=82	=82	=82	=82	=82
*	*	*	*ped	*	*
!	!	!	!LO:TX:a:i:t=ten	!	!
16EE-\ 16E-	.	.	1c	.	.
16E-\LL	.	.	.	.	.
16e->\	1	.	.	.	.
16A-\JJ	5	.	.	.	.
16a->\LL	1	.	.	.	.
16e->\	3	.	.	.	.
16cc>\	1	.	.	.	.
16e->\JJ	2	.	.	.	.
16a->\LL	1	.	.	.	.
16e->\	2	.	.	.	.
16A-\	3	.	.	.	.
16E-\JJ	5	.	.	.	.
16e->\LL	1	.	.	.	.
16A-\	2	.	.	.	.
16E-\	3	.	.	.	.
16AA-\JJ	5	.	.	.	.
*	*	*	*Xped	*	*
=83	=83	=83	=83	=83	=83
*	*	*	*ped	*	*
!	!	!	!LO:TX:a:i:t=ten	!	!
16EE-\ 16E-	.	.	N(>1c-X	.	.
16E-\LL	.	.	.	.	.
16e->\	.	.	.	.	.
16A-\JJ	.	.	.	.	.
16a->\LL	.	.	.	.	.
16e->\	.	.	.	.	.
16cc>\	.	.	.	.	.
16e->\JJ	.	.	.	.	.
16a->\LL	.	.	.	.	.
16e->\	.	.	.	.	.
16A-\	.	.	.	.	.
16E-\JJ	.	.	.	.	.
16e->\LL	.	.	.	.	.
16A-\	.	.	.	.	.
16E-\	.	.	.	.	.
16AA-\JJN)	.	.	.	.	.
*	*	*	*Xped	*	*
=84	=84	=84	=84	=84	=84
*	*	*	*ped	*	*
16FF-X:\ 16C-X: 16A-:	.	.	1c	.	.
16F-X\LL	.	.	.	.	.
16f-X>\	.	.	.	.	.
16A-\JJ	.	.	.	.	.
16a->\LL	1	.	.	.	.
16f-X>\	2	.	.	.	.
16cc-X>\	1	.	.	.	.
16f->\JJ	2	.	.	.	.
16a->\LL	1	.	.	.	.
16f->\	.	.	.	.	.
16A-\	.	.	.	.	.
16F-\JJ	.	.	.	.	.
16f->\LL	1	.	.	.	.
16A-\	2	.	.	.	.
16F-\	3	.	.	.	.
16AA-\JJ	5	.	.	.	.
*	*	*	*Xped	*	*
!!LO:LB:g=original	!	!	!	!	!
=85	=85	=85	=85	=85	=85
!	!	!	!LO:TX:a:i:t=Perendosi	!	!
16BBB-/LL 16BB-	.	.	4.B-/	.	.
16BB-/	.	.	.	.	.
16A-/	.	.	.	.	.
16F/JJ	.	.	.	.	.
16d\LL	.	.	.	.	.
16A-\	.	.	.	.	.
16f>\	.	.	8ryy	.	.
16A-\JJ	.	.	.	.	.
16d\LL	.	.	2ryy	.	.
16A-\	.	.	.	.	.
16F\	.	.	.	.	.
16D\JJ	.	.	.	.	.
16A-\LL	.	.	.	.	.
16F\	.	.	.	.	.
16D\	.	.	.	.	.
16BB-\JJ	.	.	.	.	.
=86	=86	=86	=86	=86	=86
16EE-\	.	.	2G</	.	.
16E-\LL	.	.	.	.	.
16e-\	.	.	.	.	.
16B-\JJ	.	.	.	.	.
16g>\LL	.	.	.	.	.
16e->\	.	.	.	.	.
16B-\	.	.	.	.	.
16E-\JJ	.	.	.	.	.
16EE-\LL	.	.	2G-X</	.	.
16E-\	.	.	.	.	.
16e-\	.	.	.	.	.
16B-\JJ	.	.	.	.	.
16g-X>\LL	.	.	.	.	.
16e->\	.	.	.	.	.
16B-\	.	.	.	.	.
16E-\JJ	.	.	.	.	.
=87	=87	=87	=87	=87	=87
16AAA-\LL 16AA-	.	.	4F-X<^>/	.	.
16AA-\	.	.	.	.	.
16A-\	.	.	.	.	.
16c-X\JJ	.	.	.	.	.
16r	.	.	8A-</L	.	.
16F-X\LL	.	.	.	.	.
16C-X\	.	.	8c-X/J	.	.
16AA-\JJ	.	.	.	.	.
16BBB-/	.	.	4B-/	.	pp
16BB-\LL	.	.	.	.	.
16A-\	.	.	.	.	.
16F-\JJ	.	.	.	.	.
!	!	!	!LO:TX:a:i:t=rallent	!	!
16cn>\LL	.	.	8.cn/L	.	.
16F-\	.	.	.	.	.
16BB-\	.	.	.	.	.
16d>\JJ	.	.	16d/Jk	.	.
=88	=88	=88	=88	=88	=88
*^	*	*	*	*	*
*ped	*	*	*	*	*	*
!LO:TX:a:i:t=marcato	!	!	!	!LO:TX:a:B:t=a tempo	!	!
2e-:/	4EE-:\ 4E-: 4G:	.	.	16r	.	f
.	.	.	.	(16f#X/LL	.	.
.	.	.	.	16g/	.	.
.	.	.	.	16b-/JJ	.	.
.	4ryy	.	.	16ee-\LL	.	.
.	.	.	.	16gg\	.	.
.	.	.	.	16bb-\	.	.
.	.	.	.	16eee-\JJ) 16ggg	.	.
4d/	2E-\ 2B-	.	.	16r	.	.
.	.	.	.	(16f#X/LL	.	.
.	.	.	.	16g/	.	<
.	.	.	.	16b-/JJ	.	.
4e-/	.	.	.	16ee-\LL	.	.
.	.	.	.	16gg\	.	.
.	.	.	.	16bb-\	.	.
.	.	.	.	16eee-\JJ) 16ggg	.	[
*Xped	*	*	*	*	*	*
!!LO:LB:g=original	!	!	!	!	!	!
=89	=89	=89	=89	=89	=89	=89
*	*^	*	*	*	*	*
4..d:/	2F:\ 2A-:	4AA-:\	.	.	16r	.	.
*	*	*	*	*	*	*above	*
.	.	.	.	.	16a-\LL	2	<
.	.	.	.	.	(16cc\	1	.
.	.	.	.	.	16ff\JJ	2	.
.	.	4ryy	.	.	16aa-\LL	4	.
.	.	.	.	.	16ccc\	1	.
.	.	.	.	.	16fff\	2	[
16c/	.	.	.	.	16aaa-\JJ) 16cccc	5-1	.
4c:/	2F:\ 2A-:	4AA-:\	.	.	16r	.	.
*	*	*	*	*	*	*below	*
.	.	.	.	.	(16f/LL	2	.
.	.	.	.	.	16a-/	3	<
.	.	.	.	.	16cc/JJ	1	.
*	*	*	*	*	*	*above	*
4c/	.	4ryy	.	.	16ff\LL	2	.
.	.	.	.	.	16aa-\	3	.
.	.	.	.	.	16ccc\	1	.
.	.	.	.	.	16fff\JJ) 16aaa-	4	[[
*	*v	*v	*	*	*	*	*
=90	=90	=90	=90	=90	=90	=90
4B-^/	[>2BB-:\ [>2F: 2A-:	.	.	16r	.	.
.	.	.	.	(16b-\LL	2	.
.	.	.	.	16dd\	1	.
.	.	.	.	16ff\JJ	2	.
4c^/	.	.	.	16aa-\LL	3	.
.	.	.	.	16bb-\	4	.
.	.	.	.	16ddd\	.	.
.	.	.	.	16fff\JJ) 16aaa-	.	.
4B-^/	2BB-\] 2F] 2A-	.	.	16r	.	.
.	.	.	.	(16b-\LL	2	.
.	.	.	.	16dd\	1	.
.	.	.	.	16ff\JJ	2	.
4A-^/	.	.	.	16bb-\LL	4	.
.	.	.	.	16ddd\	1	.
.	.	.	.	16fff\	2	.
*	*	*	*	*8va	*	*
.	.	.	.	16bbb-\JJ) 16dddd	.	.
*	*	*	*	*X8va	*	*
*v	*v	*	*	*	*	*
=91	=91	=91	=91	=91	=91
(2BB-\ 2D 2F 2A-	.	.	16r	.	sf
.	.	.	(16b-^<\LL	.	.
.	.	.	16dd\	.	.
.	.	.	16ff\JJ	.	<
.	.	.	16bb-\LL	.	.
.	.	.	16ddd\	.	.
.	.	.	16aaa-\	.	.
*	*	*	*8va	*	*
.	.	.	16bbb-\JJ) 16dddd	.	.
*	*	*	*X8va	*	*
2E-\) 2G	.	.	16r	.	[
.	.	.	(16e-\LL	.	.
.	.	.	16g\	.	<
.	.	.	16b-\JJ	.	.
.	.	.	16ee-\LL	.	.
.	.	.	16gg\	.	.
.	.	.	16bb-\	.	.
.	.	.	16eee-\JJ) 16ggg	.	[[
=92	=92	=92	=92	=92	=92
*^	*	*	*	*	*
2B-/	4BB-\ 4D 4F	.	.	16r	.	sf
.	.	.	.	(16c#X/LL	2	<
.	.	.	.	16d/	1	.
.	.	.	.	16f/JJ	2	.
.	4ryy	.	.	16b-\LL	4	.
.	.	.	.	16dd\	1	.
.	.	.	.	16ff\	2	.
.	.	.	.	16bb-\JJ) 16ddd	4 5	.
4F^>/	2ryy	.	.	16r	.	[
.	.	.	.	(16c#/LL	.	.
.	.	.	.	16d/	.	.
.	.	.	.	16f/JJ	.	.
4F#X^>/	.	.	.	16b-\LL	.	.
.	.	.	.	16dd\	.	.
.	.	.	.	16bb-\ 16ddd	.	.
.	.	.	.	16dd\JJ)	.	.
!!LO:LB:g=original	!	!	!	!	!	!
=93	=93	=93	=93	=93	=93	=93
*ped	*	*	*	*	*	*
2G/	4EE-\ 4E-	.	.	16r	.	.
.	.	.	.	(16d\LL	.	.
.	.	.	.	16e-\	.	.
.	.	.	.	16g\JJ	.	.
.	4ryy	.	.	16b-\LL	.	.
.	.	.	.	16ee-\	.	.
.	.	.	.	16gg\	.	.
.	.	.	.	16bb-\JJ) 16ggg	.	.
4G/	2ryy	.	.	16r	.	.
.	.	.	.	(16d\LL	.	.
.	.	.	.	16e-\	.	.
.	.	.	.	16g\JJ	.	.
4B-/	.	.	.	16b-\LL	.	.
.	.	.	.	16ee-\	.	.
.	.	.	.	16gg\	.	.
.	.	.	.	16eee-\JJ) 16ggg	.	.
=94	=94	=94	=94	=94	=94	=94
*ped	*	*	*	*	*	*
4An/	[>2BB-\ 2E- 2F	.	.	16r	.	f
.	.	.	.	(16e-\LL	.	.
.	.	.	.	16f\	.	.
.	.	.	.	16an\JJ	.	.
!	!	!	!	!	!	!LO:HP:b:t=cres
4c/	.	.	.	16cc\LL	.	<
.	.	.	.	16ff\	.	.
.	.	.	.	16aa-\	.	.
.	.	.	.	16ccc\JJ) 16fff	.	.
4e-/	2BB-\] 2E- 2F	.	.	16r	.	.
.	.	.	.	(16f\LL	.	.
.	.	.	.	16an\	.	<
.	.	.	.	16cc\JJ	.	.
4e-/	.	.	.	24ee-\LL	.	.
.	.	.	.	24ff\	.	.
.	.	.	.	24aa-\	.	.
.	.	.	.	24ccc\	.	.
.	.	.	.	24eee-\	.	.
.	.	.	.	24aaa-\JJ)	.	[[
*v	*v	*	*	*	*	*
=95	=95	=95	=95	=95	=95
2BB-\ [>2F 2An 2e-	.	.	24r	.	f
.	.	.	(24f\LL	.	.
.	.	.	24an\	.	.
.	.	.	24cc\	.	.
.	.	.	24ee-\	.	.
.	.	.	24ff\JJ	.	.
.	.	.	28aa-\LL	.	.
.	.	.	28ccc\	.	.
.	.	.	28eee-\	7	.
.	.	.	28fff\)	.	.
*	*	*	*8va	*	*
.	.	.	28fff\	.	.
.	.	.	28aaa-\	.	.
.	.	.	28cccc\JJ	.	.
*	*	*	*X8va	*	*
2BB-\ 2F] 2d	.	.	16r	.	.
.	.	.	(16f/LL	.	.
.	.	.	16b-/	.	.
.	.	.	16dd/JJ	.	.
.	.	.	20ff\LL	.	.
.	.	.	20bb-\	.	.
.	.	.	20ddd\	5	.
.	.	.	20fff\	.	.
.	.	.	20bbb-\JJ)	.	.
=96	=96	=96	=96	=96	=96
16qqEE-/LL	.	.	.	.	.
16qqBB-/	.	.	.	.	.
!LO:TX:a:i:t=con fuoco sempre forte	!	!	!	!	!
16qqE-/JJ	.	.	.	.	.
*^	*	*	*^	*	*
!	!	!	!	!LO:N:vis=2	!	!	!
2G/	16G\LL	.	.	16e-/LL	2e-\	.	f
.	16BB-\	.	.	16g/ 16b-	.	.	.
.	16EE-\	.	.	16ee-/	.	.	.
.	16BB-\JJ	.	.	16g/JJ 16b-	.	.	.
.	16EE-\LL	.	.	16ee-/LL	.	.	.
.	16BB-\	.	.	16g/ 16b-	.	.	.
.	16EE-\	.	.	16ee-/	.	.	.
.	16BB-\JJ	.	.	16g/JJ 16b-	.	.	.
4A-/	16A-\LL	.	.	16d/LL	4d\	.	.
.	16BB-\	.	.	16a-/ 16b-	.	.	.
.	16EE-\	.	.	16dd/	.	.	.
.	16BB-\JJ	.	.	16a-/JJ	.	.	.
4G/	16G\LL	.	.	16e-/LL	4e-\	.	.
.	16BB-\	.	.	16g/ 16b-	.	.	.
.	16EE-\	.	.	16ee-/	.	.	.
.	16BB-\JJ	.	.	16g/JJ 16b-	.	.	.
!!LO:LB:g=original	!	!	!	!	!	!	!
=97	=97	=97	=97	=97	=97	=97	=97
4.A-/	16A-\LL	.	.	16d/LL	4.d\	.	.
.	16F\	.	.	16f/ 16a-	.	.	.
.	16AA-\	.	.	16dd/	.	.	.
.	16F\JJ	.	.	16f/JJ 16a-	.	.	.
.	16AA-\LL	.	.	16dd/LL	.	.	.
.	16F\	.	.	16f/ 16a-	.	.	.
16A-/LL	16AA-\	.	.	16cc/	16c\LL	.	.
16F/JJ	16F\JJ	.	.	16f/JJ 16a-	16f\JJ	.	.
4A-/	16A-\LL	.	.	16c/LL	4c\	.	.
.	16F\	.	.	16f/ 16a-	.	.	.
.	16AA-\	.	.	16cc/	.	.	.
.	16F\JJ	.	.	16f/JJ 16a-	.	.	.
4A-/	16A-\LL	.	.	16c/LL	4c\	.	.
.	16F\	.	.	16f/ 16a-	.	.	.
.	16AA-\	.	.	16cc/	.	.	.
.	16F\JJ	.	.	16f/JJ 16a-	.	.	.
*v	*v	*	*	*	*	*	*
=98	=98	=98	=98	=98	=98	=98
16An\LL	.	.	16f/LL	4f\	.	.
16F\	.	.	16an/ 16cc	.	.	.
16AA-\	.	.	16ff/	.	.	.
16F\JJ	.	.	16a/JJ 16cc	.	.	.
16c\LL	.	.	16g/LL	4g^\	.	.
16F\	.	.	16a/ 16cc	.	.	.
16AA-\	.	.	16gg/	.	.	.
16F\JJ	.	.	16a/JJ 16cc	.	.	.
16A\LL	.	.	16f/LL	4f^\	.	.
16F\	.	.	16a/ 16cc	.	.	.
16AA-\	.	.	16ff/	.	.	.
16F\JJ	.	.	16a/JJ 16cc	.	.	.
16c\LL	.	.	16e-/LL	4e-^\	.	.
16F\	.	.	16a/ 16cc	.	.	.
16AA-\	.	.	16ee-/	.	.	.
16F\JJ	.	.	16a/JJ 16cc	.	.	.
=99	=99	=99	=99	=99	=99	=99
*^	*	*	*	*	*	*
!	!LO:N:vis=2	!	!	!LO:N:vis=2	!	!	!
(2c/	16c\LL	.	.	16e-^</LL	(2e-\	.	f
.	16F\	.	.	16an/ 16cc	.	.	.
.	16BB-\	.	.	16ff/	.	.	.
.	16F\JJ	.	.	16a/JJ 16cc	.	.	.
.	16BB-\LL	.	.	16cc/LL 16ee-	.	.	.
.	16F\	.	.	16a/ 16cc	.	.	.
.	16c\	.	.	16e-/	.	.	.
.	16F\JJ	.	.	16a/JJ 16cc	.	.	.
!	!LO:N:vis=2	!	!	!LO:N:vis=2	!	!	!
2B-/)	16B-\LL	.	.	16d/LL	2d\)	.	.
.	16F\	.	.	16f/ 16b-	.	.	.
.	16BB-\	.	.	16dd/	.	.	.
.	16F\JJ	.	.	16f/JJ 16b-	.	.	.
.	16BB-\LL	.	.	16dd/LL	.	.	.
.	16F\	.	.	16b-/	.	.	.
.	16B-\	.	.	16f/	.	.	.
.	16F\JJ	.	.	16d/JJ	.	.	.
=100	=100	=100	=100	=100	=100	=100	=100
!	!	!	!	!LO:N:vis=2	!	!	!
2A-X/	16A-\LL	.	.	16d/LL	(2d\	.	.
.	16F\	.	.	16f/ 16a-	.	.	.
.	16BB-\	.	.	16dd/	.	.	.
.	16F\JJ	.	.	16f/JJ 16a-	.	.	.
.	16BB-\LL	.	.	16dd/LL	.	.	.
.	16F\	.	.	16f/ 16a-	.	.	.
.	16A-\	.	.	16d/	.	.	.
.	16F\JJ	.	.	16f/JJ 16a-	.	.	.
16A-\LL	2ryy	.	.	16c/LL	4c\)	.	.
16F\	.	.	.	16f/ 16a-	.	.	.
16BB-\	.	.	.	16cc/	.	.	.
16F\JJ	.	.	.	16f/JJ 16a-	.	.	.
16B-\LL	.	.	.	16B-/LL	4B-\	.	.
16F\	.	.	.	16f/ 16a-	.	.	.
16BB-\	.	.	.	16b-/	.	.	.
16F\JJ	.	.	.	16f/JJ 16a-	.	.	.
!!LO:PB:g=original	!	!	!	!	!	!	!
=101	=101	=101	=101	=101	=101	=101	=101
4G/	16G\LL	.	.	16B-/LL	4B-\	.	.
.	16E-\	.	.	16e-/ 16g	.	.	.
.	16GG\	.	.	16b-/	.	.	.
.	16E-\JJ	.	.	16e-/JJ 16g	.	.	.
4G/	16G\LL	.	.	16Bn/LL	4B\	.	.
!	!	!	!	!	!	!	!LO:HP:b:t=cres
.	16D\	.	.	16d/ 16f	.	.	<
.	16GG\	.	.	16b-/ 16dd	.	.	.
.	16D\JJ	.	.	16d/JJ 16f	.	.	.
4A-/	16A-\LL	.	.	16c/LL	4c\	.	.
.	16E-\	.	.	16e-/	.	.	.
.	16AA-\	.	.	16cc/	.	.	.
.	16E-\JJ	.	.	16e-/JJ	.	.	.
4An/	16A\LL	.	.	16f/LL	4f\	.	.
.	16E-\	.	.	16a-/ 16cc	.	.	.
.	16AA-\	.	.	16ff/	.	.	.
.	16E-\JJ	.	.	16a-/JJ 16cc	.	.	.
=102	=102	=102	=102	=102	=102	=102	=102
!	!LO:N:vis=2	!	!	!LO:N:vis=2	!	!	!
2B-/	16B-\LL	.	.	16e-/LL	2e-\	.	.
.	16G\	.	.	16g/ 16b-	.	.	.
.	16BB-\	.	.	16ee-/	.	.	.
.	16G\JJ	.	.	16g/JJ 16b-	.	.	.
.	16BB-\LL	.	.	16ee-/LL	.	.	.
.	16G\	.	.	16g/ 16b-	.	.	.
.	16B-\	.	.	16e-/	.	.	.
.	16G\JJ	.	.	16g/JJ 16b-	.	.	.
!	!LO:N:vis=2	!	!	!LO:N:vis=2	!	!	!
2B-/	16B-\LL	.	.	16d/LL	2d\	.	>
.	16F\	.	.	16f/ 16a-	.	.	.
.	16BB-\	.	.	16dd/	.	.	.
.	16F\JJ	.	.	16f/JJ 16a-	.	.	.
.	16B-\LL	.	.	16dd/LL	.	.	.
.	16F\	.	.	16f/ 16a-	.	.	.
.	16D\	.	.	16d/	.	.	.
.	16BB-\JJ	.	.	16f/JJ 16a-	.	.	]]
=103	=103	=103	=103	=103	=103	=103	=103
(32qqGGG/LLL	.	.	.	.	.	.	.
32qqBBBn/	.	.	.	.	.	.	.
32qqDD/	.	.	.	.	.	.	.
32qqGG/	.	.	.	.	.	.	.
32qqBB-/	.	.	.	.	.	.	.
32qqD/JJJ)	.	.	.	.	.	.	.
!	!LO:N:vis=2	!	!	!LO:N:vis=2	!	!	!
*	*	*	*	*	*ped	*	*
2G/	16G\LL	.	.	16g/LL	2g\	.	ff
.	16D\	.	.	16bn/ 16dd	.	.	.
.	16GG\	.	.	16gg/	.	.	.
.	16D\JJ	.	.	16b/JJ 16dd	.	.	.
.	16GG\LL	.	.	16gg/LL	.	.	.
.	16D\	.	.	16b/ 16dd	.	.	.
.	16G\	.	.	16g/	.	.	.
.	16D\JJ	.	.	16b/JJ 16dd	.	.	.
*	*	*	*	*	*Xped	*	*
4An/	16A\LL	.	.	16f#X/LL	4f#\	.	.
.	16D\	.	.	16cc/ 16dd	.	.	.
.	16GG\	.	.	16ff#X/	.	.	.
.	16D\JJ	.	.	16cc/JJ 16dd	.	.	.
4Bn/	16B\LL	.	.	16fn/LL	4f\	.	.
.	16D\	.	.	16b/ 16dd	.	.	.
.	16GG\	.	.	16ffn/	.	.	.
.	16D\JJ	.	.	16b/JJ 16dd	.	.	.
!!LO:LB:g=original	!	!	!	!	!	!	!
=104	=104	=104	=104	=104	=104	=104	=104
4c/	16c\LL	.	.	16e-/LL	4e-\	.	.
.	16E-\	.	.	16g/ 16cc	.	.	.
.	16C\	.	.	16cc/ 16ee-	.	.	.
.	16E-\JJ	.	.	16g/JJ	.	.	.
4c/	16c\LL	.	.	16e-/LL	4e-\	.	.
.	16E-\	.	.	16g/ 16cc	.	.	.
.	16C\	.	.	16cc/ 16ee-	.	.	.
.	16E-\JJ	.	.	16g/JJ	.	.	.
4Bn/	16B\LL	.	.	16d/LL	4d\	.	.
.	16F\ 16A-	.	.	16f/ 16a-	.	.	.
.	16BB-\	.	.	16dd/	.	.	.
.	16F\JJ 16A-	.	.	16f/JJ 16a-	.	.	.
4An/	16A\LL	.	.	16c/LL	4c\	.	.
.	16E#X\ 16F	.	.	16e#X/ 16f	.	.	.
.	16AA-\	.	.	16cc/	.	.	.
.	16E#\JJ 16F	.	.	16e#/JJ 16f	.	.	.
=105	=105	=105	=105	=105	=105	=105	=105
4G/	16G\LL	.	.	16B-/LL	4B-\	.	.
.	16E-\	.	.	16e-/ 16g	.	.	.
.	16BB-\	.	.	16b-/	.	.	.
.	16E-\JJ	.	.	16e-/JJ 16g	.	.	.
4An/	16A\LL	.	.	16c/LL	4c\	.	.
!	!	!	!	!LO:TX:b:i:t=espres	!	!	!
.	16E-\	.	.	16e-/ 16f#X	.	.	.
.	16BB-\	.	.	16cc/	.	.	.
.	16E-\JJ	.	.	16e-/JJ 16f#	.	.	.
4B-/	16B-\LL	.	.	16d/LL	4d\	.	.
.	16F\	.	.	16fn/ 16a-	.	.	.
.	16BB-\	.	.	16dd/	.	.	.
.	16F\JJ	.	.	16f/JJ 16a-	.	.	.
8.BBn/L	16BB\LL	.	.	16g/LL	8.g\L	.	sf
.	16FF\	.	.	16dd/	.	.	.
.	16BBBn\	.	.	16gg/	.	.	.
16BB/Jk	16BB\JJ	.	.	16ff/JJ	16f\Jk	.	.
*v	*v	*	*	*	*	*	*
*	*	*	*v	*v	*	*
=106	=106	=106	=106	=106	=106
!	!	!	!LO:TX:b:i:t=con sordino	!	!
(16CC\ 16C	.	.	2e-\ 2ee-	.	p
16C\LL	.	.	.	.	.
16An\	.	.	.	.	.
16F#X\JJ	.	.	.	.	.
*ped	*	*	*	*	*
16c\LL	.	.	.	.	.
16A\	.	.	.	.	.
16e-\	.	.	.	.	.
16A\JJ	.	.	.	.	.
16c\LL	.	.	2r	.	.
16A\	.	.	.	.	.
16F#\	.	.	.	.	.
16C\JJ	.	.	.	.	.
16A\LL	.	.	.	.	.
16F#\	.	.	.	.	.
16E-\	.	.	.	.	.
16C\JJ)	.	.	.	.	.
=107	=107	=107	=107	=107	=107
(16CC\ 16C	.	.	(2g-X^<\ 2gg-X	.	.
16C\LL	.	.	.	.	.
16An\	.	.	.	.	.
16F#X\JJ	.	.	.	.	.
16c\LL	.	.	.	.	.
16A\	.	.	.	.	.
16e-\	.	.	.	.	.
16A\JJ	.	.	.	.	.
16c\LL	.	.	4f\ 4ff	.	.
16A\	.	.	.	.	.
16F#\	.	.	.	.	.
16C\JJ	.	.	.	.	.
16A\LL	.	.	4e-\) 4ee-	.	.
16F#\	.	.	.	.	.
16E-\	.	.	.	.	.
16C\JJ)	.	.	.	.	.
*Xped	*	*	*	*	*
!!LO:LB:g=original	!	!	!	!	!
=108	=108	=108	=108	=108	=108
(16CC\ 16C	.	.	2e-/ 2ee-	.	pp
16C\LL	.	.	.	.	.
*ped	*	*	*	*	*
16An\	.	.	.	.	.
16F#X\JJ	.	.	.	.	.
16c\LL	.	.	.	.	.
16A\	.	.	.	.	.
16e-\	.	.	.	.	.
16A\JJ	.	.	.	.	.
16c\LL	.	.	2r	.	.
16A\	.	.	.	.	.
16F#\	.	.	.	.	.
16C\JJ	.	.	.	.	.
16A\LL	.	.	.	.	.
16F#\	.	.	.	.	.
16E-\	.	.	.	.	.
16C\JJ)	.	.	.	.	.
=109	=109	=109	=109	=109	=109
(16CC\ 16C	.	.	(2g-X^>/	.	p
16C\LL	.	.	.	.	.
16An\	.	.	.	.	.
16F#X\JJ	.	.	.	.	.
16c\LL	.	.	.	.	.
16A\	.	.	.	.	.
16e-\	.	.	.	.	.
16A\JJ	.	.	.	.	.
16c\LL	.	.	4f/	.	.
16A\	.	.	.	.	.
16F#\	.	.	.	.	.
16C\JJ	.	.	.	.	.
16A\LL	.	.	4e-/)	.	.
16F#\	.	.	.	.	.
16E-\	.	.	.	.	.
16C\JJ)	.	.	.	.	.
*Xped	*	*	*	*	*
=110	=110	=110	=110	=110	=110
*	*	*	*ped	*	*
16DD-X\ 16D-X	.	.	(2d-X/	.	.
16D-\LL	.	.	.	.	.
16B-\	.	.	.	.	.
16G-X\JJ	.	.	.	.	.
16g>\LL	.	.	.	.	.
16B-\	.	.	.	.	.
16b->\	.	.	.	.	.
16B-\JJ	.	.	.	.	.
16g>\LL	.	.	4d-^>/	.	.
16B-\	.	.	.	.	.
16G-\	.	.	.	.	.
16D-\JJ	.	.	.	.	.
16r	.	.	4d-^>/)	.	.
16B-\LL	.	.	.	.	.
16G-\	.	.	.	.	.
16D-\JJ	.	.	.	.	.
*	*	*	*Xped	*	*
=111	=111	=111	=111	=111	=111
*	*	*	*ped	*	*
16DD\	.	.	(>2d-X/	.	.
16D-X\LL	.	.	.	.	.
16c-X\	.	.	.	.	.
16A-\JJ	.	.	.	.	.
16f>\LL	.	.	.	.	.
16c-\	.	.	.	.	.
16a->\	.	.	.	.	.
16c-\JJ	.	.	.	.	.
16r	.	.	8.d-/L	.	.
(16D-\LL	.	.	.	.	.
16c-\	.	.	.	.	.
16A-\JJ	.	.	16d-/Jk	.	.
16F\LL	.	.	16e-/LL	.	.
16c-\	.	.	16f/	.	.
16A-\	.	.	16g-X/	.	.
16F\JJ)	.	.	16a-/JJ)	.	.
*	*	*	*Xped	*	*
!!LO:LB:g=original	!	!	!	!	!
=112	=112	=112	=112	=112	=112
*	*	*	*ped	*	*
.	.	.	16qqdn/LL	.	.
!	!	!	!LO:TX:a:i:t=ten	!	!
.	.	.	16qqf/JJ	.	.
16BBB-\	.	.	2b-\	.	.
16BB-\LL	.	.	.	.	.
16A-\	.	.	.	.	.
16F\JJ	.	.	.	.	.
16B-\LL	.	.	.	.	.
16A-\	.	.	.	.	.
16d\	.	.	.	.	.
16A-\JJ	.	.	.	.	.
16B-\LL	.	.	8.b-\L	.	.
16F\	.	.	.	.	.
16D\	.	.	.	.	.
16BB-\JJ	.	.	16b-\Jk	.	<
16A-\LL	.	.	16ccn\LL	.	.
16F\	.	.	16dd\	.	.
16D\	.	.	16ee-\	.	.
16BB-\JJ	.	.	16ff\JJ	.	[[
*	*	*	*Xped	*	*
=113	=113	=113	=113	=113	=113
*	*	*	*ped	*	*
!	!	!	!LO:TX:b:i:t=cantabile	!	!
(16EE-\ 16E-	.	.	2gn:\ 2b-: 2ee-: 2ggn:	.	f
16E-\LL	.	.	.	.	.
16B-\	.	.	.	.	.
16G\JJ	.	.	.	.	.
16e-\LL	.	.	.	.	.
16B-\	.	.	.	.	.
16g\	.	.	.	.	.
16e-\JJ	.	.	.	.	.
16e-\LL	.	.	4g:\ 4b-: 4ee-: 4gg:	.	.
16B-\	.	.	.	.	.
16G\	.	.	.	.	.
16E-\JJ	.	.	.	.	.
16e-\LL	.	.	4g:\ 4b-: 4ee-: 4gg:	.	.
16B-\	.	.	.	.	.
16G\	.	.	.	.	.
16E-\JJ)	.	.	.	.	.
*	*	*	*Xped	*	*
=114	=114	=114	=114	=114	=114
*	*	*	*^	*	*
*	*	*	*	*^	*	*
*	*	*	*ped	*	*	*	*
(16AAAn\	.	.	(4ee-^/ 4gg	2an\ [2cc	4f\	.	sf
16AAn\LL	.	.	.	.	.	.	.
16F\	.	.	.	.	.	.	.
16E-\JJ	.	.	.	.	.	.	.
16An\LL	.	.	8ff/L	.	4ryy	.	.
16F\	.	.	.	.	.	.	.
16c\	.	.	8een/J	.	.	.	.
16F\JJ	.	.	.	.	.	.	.
16A\LL	.	.	2ff/)	2cc\]	2ryy	.	.
16F\	.	.	.	.	.	.	.
16E-\	.	.	.	.	.	.	.
16C\JJ	.	.	.	.	.	.	.
16F\LL	.	.	.	.	.	.	.
16E-\	.	.	.	.	.	.	.
16C\	.	.	.	.	.	.	.
16AA\JJ)	.	.	.	.	.	.	.
*	*	*	*Xped	*	*	*	*
*	*	*	*	*v	*v	*	*
!!LO:LB:g=original	!	!	!	!	!	!
=115	=115	=115	=115	=115	=115	=115
*	*	*	*ped	*	*	*
!	!	!	!LO:N:vis=2:xstem	!	!	!
(16BBB-\ 16BB-	.	.	[2ddd:/	4b-:\ 4ff: 4aa-X:	.	sf >
16BB-\LL	.	.	.	.	.	.
16A-X\	.	.	.	.	.	.
16F\JJ	.	.	.	.	.	.
16B-\LL	.	.	.	4ryy	.	]
16A-\	.	.	.	.	.	.
16d\	.	.	.	.	.	.
16A-\JJ	.	.	.	.	.	.
16B-\LL	.	.	8.ddd\L]	2ryy	.	p
16A-\	.	.	.	.	.	.
16F\	.	.	.	.	.	.
16BB-\JJ	.	.	(48ccc\LL	.	.	.
.	.	.	48bb-\	.	.	.
.	.	.	48aa-\JJJ	.	.	.
!	!	!	!	!	!	!LO:HP:b:t=dim
16B-\LL	.	.	36gg\LLL	.	.	>
.	.	.	36aa-\	.	.	.
.	.	.	36gg\	.	.	.
16A-\	.	.	.	.	.	.
.	.	.	36ff\	.	.	.
.	.	.	36gg\	.	.	.
16F\	.	.	.	.	.	.
.	.	.	36bb-\	.	.	.
.	.	.	36aa-\	.	.	.
16BB-\JJ)	.	.	.	.	.	.
.	.	.	36cc\	.	3	.
.	.	.	36dd\JJJ)	.	.	.
*	*	*	*Xped	*	*	*
*	*	*	*v	*v	*	*
=116	=116	=116	=116	=116	=116
*	*	*	*ped	*	*
(16EE-\ 16E-	.	.	2ee-\	.	p
16E-\LL	.	.	.	.	.
16B-\	.	.	.	.	.
16G\JJ	.	.	.	.	.
16e-\LL	.	.	.	.	.
16B-\	.	.	.	.	.
16g>\	.	.	.	.	.
16B-\JJ	.	.	.	.	.
16e-\LL	.	.	2ryy	.	.
16B-\	.	.	.	.	.
16G\	.	.	.	.	.
16E-\JJ	.	.	.	.	.
16e-\LL	.	.	.	.	.
16B-\	.	.	.	.	.
16G\	.	.	.	.	.
16E-\JJ)	.	.	.	.	.
=117	=117	=117	=117	=117	=117
.	.	.	32qqG/LLL	.	mf
.	.	.	32qqB-/	.	.
!	!	!	!LO:TX:a:i:t=ten	!	!
.	.	.	32qqe-/JJJ	.	.
(16EEE-/ 16EE-	.	.	2g^/	.	.
16GG\LL	.	.	.	.	.
16E-\	.	.	.	.	.
16BB-\JJ	.	.	.	.	.
16G\LL	.	.	.	.	.
16E-\	.	.	.	.	.
16B-\	.	.	.	.	.
16E-\JJ	.	.	.	.	.
.	.	.	32qqB-/LLL	.	.
.	.	.	32qqe-/JJJ	.	.
16G\LL	.	.	4g^/	.	.
16E-\	.	.	.	.	.
16BB-\	.	.	.	.	.
16GG\JJ	.	.	.	.	.
.	.	.	32qqG/LLL	.	.
.	.	.	32qqB-/	.	.
.	.	.	32qqe-/JJJ	.	.
16E-\LL	.	.	4g^/	.	.
16BB-\	.	.	.	.	.
16GG\	.	.	.	.	.
16EE-\JJ)	.	.	.	.	.
!!LO:LB:g=original	!	!	!	!	!
=118	=118	=118	=118	=118	=118
*^	*	*	*	*	*
16FFF\	2An/ 2c	.	.	4g/	.	.
16FF\LL	.	.	.	.	.	.
16C\	.	.	.	.	.	.
16AAn\JJ	.	.	.	.	.	.
16F\LL	.	.	.	8f/L	.	.
16AA\	.	.	.	.	.	.
16C\	.	.	.	8en/J	.	.
16AA\JJ	.	.	.	.	.	.
16F/LL	2ryy	.	.	2f/	.	.
16C/	.	.	.	.	.	.
16AA/	.	.	.	.	.	.
16FF/JJ	.	.	.	.	.	.
16E-/LL	.	.	.	.	.	.
16C/	.	.	.	.	.	.
16AA/	.	.	.	.	.	.
16FF/JJ	.	.	.	.	.	.
*v	*v	*	*	*	*	*
=119	=119	=119	=119	=119	=119
.	.	.	16qqB-/LL	.	.
.	.	.	16qqf/	.	.
.	.	.	16qqa-X/JJ	.	.
16BBB-\ 16BB-	.	.	[2dd\	.	.
16BB-\LL	.	.	.	.	.
16A-X\	.	.	.	.	.
16F\JJ	.	.	.	.	.
16B-\LL	.	.	.	.	.
16A-\	.	.	.	.	.
16d\	.	.	.	.	.
16A-\JJ	.	.	.	.	.
16B-\LL	.	.	8.dd/L]	.	.
16A-\	.	.	.	.	.
16F\	.	.	.	.	.
*	*	*	*tuplet	*	*
16BB-\JJ	.	.	48cc/LL	.	.
*	*	*	*	*below	*
.	.	.	48b-/	.	.
.	.	.	48a-/	.	.
!	!	!LO:DY:a	!	!	!
*	*	*	*Xtuplet	*	*
16B-\LL	.	p	40g/	.	.
.	.	.	40a-/	.	.
.	.	.	40g/	.	.
16A-\	.	.	.	.	.
.	.	.	80f/L	.	.
.	.	.	80g/	.	.
.	.	.	80b-/	.	.
.	.	.	80a-/	.	.
16F\	.	.	80An/	.	.
.	.	.	80B-/	.	.
.	.	.	80c/	.	.
!	!	!	!	!	!LO:HP:b:t=dim
.	.	.	80B-/	.	>
.	.	.	80d/	.	.
16BB-\JJ	.	.	80c/	.	.
.	.	.	80e-/	6	.
.	.	.	80d/	.	.
.	.	.	80.g/	.	.
.	.	.	160f/JJJJk	.	.
*	*	*	*Xped	*	*
=120	=120	=120	=120	=120	=120
*^	*	*	*	*	*
*	*	*	*	*ped	*	*
16rF	1EE-	.	.	2.e-/	.	p
(16GG\LL	.	.	.	.	.	.
16E-\	.	.	.	.	.	.
16BB-\JJ	.	.	.	.	.	.
16G\LL	.	.	.	.	.	.
16E-\	.	.	.	.	.	.
16B-\	.	.	.	.	.	.
16E-\JJ	.	.	.	.	.	.
16G\LL	.	.	.	.	.	.
16E-\	.	.	.	.	.	.
16BB-\	.	.	.	.	.	.
16GG\JJ	.	.	.	.	.	.
16F#X^\LL	.	.	.	4e-^/	.	.
16C\	.	.	.	.	.	.
16AAn\	.	.	.	.	.	.
16EE-\JJ)	.	.	.	.	.	.
!!LO:LB:g=original	!	!	!	!	!	!
=121	=121	=121	=121	=121	=121	=121
16rA	1EE-	.	.	2.e-/	.	p
(16GG\LL	.	.	.	.	.	.
16E-\	.	.	.	.	.	.
16BB-\JJ	.	.	.	.	.	.
16G\LL	.	.	.	.	.	.
16E-\	.	.	.	.	.	.
16B-\	.	.	.	.	.	.
16E-\JJ	.	.	.	.	.	.
16G\LL	.	.	.	.	.	.
16E-\	.	.	.	.	.	.
16BB-\	.	.	.	.	.	.
16GG\JJ	.	.	.	.	.	.
16F#X^\LL	.	.	.	4e-^/	.	.
16C\	.	.	.	.	.	.
16AAn\	.	.	.	.	.	.
16EE-\JJ)	.	.	.	.	.	.
*v	*v	*	*	*	*	*
=122	=122	=122	=122	=122	=122
16EEE-\ 16EE-	.	.	2ryy	.	.
16GG\LL	.	.	.	.	.
16E-\	.	.	.	.	.
16BB-\JJ	.	.	.	.	.
16G\LL	.	.	.	.	.
16E-\	.	.	.	.	.
16B-\	.	.	.	.	.
16E-\JJ	.	.	.	.	.
16g>\LL	.	.	4g/	.	.
16e->\	.	.	.	.	.
16B->\	.	.	.	.	.
16G>\JJ	.	.	.	.	.
16e->\LL	.	.	4e-/	.	.
16B-\	.	.	.	.	.
16G\	.	.	.	.	.
16E-\JJ	.	.	.	.	.
=123	=123	=123	=123	=123	=123
*^	*	*	*	*	*
!LO:N:vis=2	!	!	!	!	!	!
16e->\LL	[1EE-	.	.	2e-/	.	.
16B-/	.	.	.	.	.	.
16G/	.	.	.	.	.	.
16E-/JJ	.	.	.	.	.	.
16G/LL	.	.	.	.	.	.
16E-/	.	.	.	.	.	.
16B-/	.	.	.	.	.	.
16G/JJ	.	.	.	.	.	.
16d>\LL	.	.	.	4d/	.	.
16B-/	.	.	.	.	.	.
16G/	.	.	.	.	.	.
16E-/JJ	.	.	.	.	.	.
N[>16e->\LL	.	.	.	4e-/	.	.
N[16B-/	.	.	.	.	.	.
N[16G/	.	.	.	.	.	.
N[16E-/JJ	.	.	.	.	.	.
*v	*v	*	*	*	*	*
=124	=124	=124	=124	=124	=124
!	!	!	!LO:TX:a:i:t=m.d.	!	!
2EE-;<\] 2E-]	.	.	2G<N] 2B-<N] 2e-;/N] 2ee-	.	.
2r	.	.	2r	.	.
==	==	==	==	==	==
*-	*-	*-	*-	*-	*-
!!!system-decoration: {(s1,s2)}
!!!RDF**kern: > = above
!!!RDF**kern: < = below
!!!RDF**kern: N = linked
!!!ENC: Berenika Jozajtis
!!!END: 2022-07-19
!!!ENC: Jan Barakat
!!!END: 2022-08-18
